filters/aerochrome.cube
# LUT by SparkleStock. Enhanced with VOXCOLOR algorithms.
LUT_3D_SIZE 5
DOMAIN_MIN 0.000000 0.000000 0.000000
DOMAIN_MAX 0.903226 0.903226 0.903226
0.019550 0.019550 0.019550
0.487497 0.045407 0.031281
0.746066 0.055624 0.032163
0.817961 0.061930 0.035191
0.871188 0.058651 0.036956
0.207486 0.031281 0.031281
0.378976 0.042425 0.031281
0.694930 0.060763 0.040871
0.714310 0.054741 0.031525
0.841946 0.060795 0.035874
0.463406 0.043894 0.031281
0.603721 0.051173 0.032595
0.527957 0.048288 0.034308
0.696578 0.050831 0.031138
0.873939 0.099513 0.072627
0.680604 0.050831 0.030650
0.682260 0.051217 0.031423
0.813746 0.079219 0.054782
0.692448 0.051360 0.031281
0.835209 0.058997 0.035191
0.837007 0.060795 0.035191
0.837690 0.060795 0.035191
0.841194 0.060311 0.035191
0.872417 0.083479 0.058472
0.847488 0.059827 0.035988
0.027370 0.049317 0.053227
0.185315 0.031281 0.031281
0.466433 0.045749 0.033136
0.684270 0.052841 0.031036
0.837007 0.060795 0.035191
0.057056 0.193388 0.222780
0.207914 0.201384 0.189018
0.482779 0.226293 0.195943
0.700494 0.234441 0.196016
0.856012 0.247599 0.203551
0.718212 0.288023 0.242131
0.602016 0.117619 0.093575
0.607023 0.133704 0.109548
0.759461 0.180431 0.148399
0.869187 0.235230 0.191690
0.761572 0.070092 0.049525
0.818519 0.069873 0.044084
0.832083 0.082376 0.055679
0.827619 0.072955 0.048305
0.902302 0.164394 0.129879
0.834863 0.059965 0.035191
0.896224 0.145702 0.114210
0.897037 0.159019 0.123706
0.900031 0.195985 0.154698
0.902339 0.175941 0.139897
0.019550 0.070381 0.076057
0.098146 0.027370 0.024343
0.465750 0.043894 0.031281
0.684026 0.054253 0.030935
0.835261 0.058651 0.035589
0.026687 0.160476 0.195918
0.181462 0.241326 0.232590
0.476992 0.244759 0.213878
0.701698 0.248150 0.208651
0.856057 0.252552 0.206465
0.038116 0.281383 0.341690
0.184318 0.381513 0.406613
0.464404 0.512479 0.475718
0.707674 0.531010 0.487006
0.870143 0.548479 0.483227
0.784256 0.819837 0.808078
0.840263 0.445830 0.395273
0.785818 0.386075 0.321186
0.793079 0.404424 0.342456
0.906730 0.483356 0.409141
0.872556 0.487587 0.420046
0.897919 0.177219 0.138000
0.913609 0.422726 0.351693
0.917355 0.446493 0.371762
0.916191 0.461236 0.387617
0.026109 0.092580 0.104311
0.056893 0.027370 0.026109
0.305697 0.040472 0.031281
0.682927 0.050831 0.030752
0.836661 0.060449 0.035191
0.029767 0.185657 0.231703
0.171520 0.265485 0.260879
0.318689 0.231693 0.212301
0.695421 0.242785 0.203227
0.854551 0.250103 0.204963
0.032021 0.300111 0.382869
0.174889 0.415248 0.450009
0.415851 0.544317 0.524520
0.709303 0.549474 0.506867
0.872813 0.558908 0.494444
0.037835 0.361264 0.464106
0.141803 0.521464 0.589005
0.402225 0.659859 0.673840
0.739054 0.752925 0.729192
0.895483 0.765302 0.721477
0.656265 0.841820 0.865537
0.908905 0.893293 0.886744
0.926919 0.619599 0.560577
0.935705 0.703444 0.653265
0.935375 0.715631 0.668021
0.023839 0.114779 0.134708
0.031765 0.032595 0.028485
0.184469 0.031765 0.031281
0.591905 0.050200 0.029800
0.836039 0.059827 0.035191
0.030451 0.214781 0.261556
0.171046 0.298605 0.303565
0.232769 0.225551 0.207270
0.589218 0.236231 0.199218
0.853165 0.250181 0.204963
0.035191 0.333471 0.429876
0.173362 0.452096 0.498390
0.400409 0.570279 0.564002
0.597854 0.541422 0.504825
0.874277 0.562162 0.499202
0.037274 0.454825 0.578938
0.159263 0.578634 0.647425
0.399475 0.684542 0.714846
0.743550 0.792804 0.780774
0.899865 0.779441 0.736897
0.038303 0.490557 0.614503
0.111864 0.649915 0.747155
0.324087 0.751494 0.809719
0.757860 0.867247 0.882467
0.928131 0.905979 0.891591
