filters/aerochrome.cube
# LUT by SparkleStock. Enhanced with VOXCOLOR algorithms.
LUT_3D_SIZE 32
0.019550 0.019550 0.019550
0.072021 0.025605 0.025605
0.124744 0.031281 0.031281
0.181251 0.031281 0.031281
0.241541 0.032037 0.031281
0.328320 0.038092 0.031281
0.412828 0.043389 0.031281
0.487497 0.045407 0.031281
0.556113 0.047425 0.031281
0.606565 0.049443 0.031281
0.650080 0.050831 0.031281
0.678334 0.050831 0.031281
0.704317 0.051588 0.031281
0.726516 0.053606 0.031281
0.746066 0.055624 0.032163
0.762211 0.057642 0.034182
0.775329 0.058651 0.035191
0.785419 0.058651 0.035191
0.793239 0.058651 0.035191
0.799294 0.058651 0.035191
0.807871 0.059912 0.035191
0.817961 0.061930 0.035191
0.825277 0.062561 0.035191
0.831331 0.062561 0.035191
0.840412 0.061048 0.035191
0.850503 0.059029 0.035191
0.857314 0.058651 0.035191
0.863368 0.058651 0.035191
0.871188 0.058651 0.036956
0.879261 0.058651 0.038975
0.885441 0.058651 0.039101
0.891496 0.058651 0.039101
0.061930 0.025605 0.023587
0.089403 0.027493 0.026516
0.118624 0.029458 0.029393
0.174090 0.032583 0.031476
0.231907 0.036074 0.033429
0.306186 0.042128 0.034470
0.380538 0.046839 0.034926
0.455208 0.045733 0.032843
0.523563 0.045668 0.031020
0.572974 0.048727 0.029979
0.618702 0.050831 0.029588
0.656330 0.050831 0.030630
0.688953 0.052369 0.032062
0.713236 0.056470 0.034145
0.734869 0.061483 0.038022
0.753097 0.067667 0.044207
0.768298 0.073364 0.048862
0.780472 0.078572 0.051986
0.790375 0.083194 0.056283
0.798512 0.087360 0.061491
0.808522 0.091486 0.064746
0.819654 0.095587 0.066829
0.826579 0.096869 0.067480
0.831591 0.096869 0.067480
0.840412 0.096918 0.068261
0.850503 0.096983 0.069303
0.859007 0.097841 0.070345
0.867144 0.098883 0.071386
0.875225 0.099924 0.072371
0.883297 0.100966 0.073347
0.888501 0.100055 0.073408
0.893514 0.099013 0.073408
0.103680 0.031281 0.027497
0.108367 0.029458 0.027627
0.116041 0.028107 0.027985
0.168511 0.033836 0.031761
0.222219 0.039613 0.035325
0.284585 0.045733 0.037408
0.349404 0.049972 0.038344
0.424855 0.046066 0.034308
0.493340 0.044146 0.030825
0.540928 0.048182 0.029002
0.587804 0.050937 0.028318
0.633114 0.050872 0.030141
0.670953 0.053028 0.032745
0.696342 0.058887 0.036651
0.719595 0.066455 0.043121
0.740101 0.076220 0.052886
0.757678 0.085985 0.060698
0.772326 0.095750 0.066557
0.784667 0.104453 0.074613
0.795213 0.112330 0.084378
0.807020 0.118987 0.090522
0.819585 0.124911 0.094493
0.826599 0.126762 0.095734
0.831091 0.126762 0.095734
0.839879 0.128324 0.097296
0.850100 0.130407 0.099379
0.860215 0.132491 0.101462
0.870306 0.134574 0.103546
0.878687 0.136828 0.104034
0.886825 0.139106 0.104294
0.891178 0.137540 0.104372
0.895280 0.135717 0.104437
0.135969 0.031281 0.029515
0.151073 0.032583 0.031728
0.166493 0.033836 0.033779
0.186674 0.034357 0.033388
0.211738 0.035707 0.033437
0.270979 0.042868 0.036562
0.335603 0.048345 0.038344
0.423553 0.046522 0.034308
0.498027 0.046164 0.031606
0.532074 0.050200 0.032908
0.564108 0.052629 0.033396
0.591710 0.051523 0.032094
0.613405 0.051856 0.031964
0.625253 0.054590 0.033787
0.643168 0.058122 0.036806
0.668882 0.062679 0.041363
0.693229 0.067236 0.045009
0.716210 0.071793 0.047743
0.736297 0.076460 0.051502
0.754135 0.081212 0.056059
0.773233 0.085395 0.059599
0.793089 0.089236 0.062529
0.807395 0.090436 0.063444
0.819178 0.090436 0.063444
0.831351 0.092780 0.065788
0.843655 0.095904 0.068912
0.854161 0.099029 0.072037
0.864251 0.102154 0.075162
0.873544 0.108184 0.079426
0.882723 0.114629 0.083853
0.888119 0.116252 0.085167
0.893261 0.117554 0.086274
0.166241 0.031281 0.031281
0.189807 0.035056 0.035056
0.211754 0.038401 0.038376
0.209410 0.035276 0.034861
0.213577 0.033437 0.032224
0.263313 0.040598 0.035740
0.321191 0.046416 0.037888
0.414349 0.046416 0.034112
0.491460 0.047490 0.032290
0.520430 0.051787 0.036326
0.545188 0.054192 0.037880
0.560682 0.052434 0.033974
0.570658 0.051384 0.031630
0.571440 0.051514 0.031891
0.583414 0.051417 0.031809
0.609779 0.051026 0.031289
0.636731 0.050831 0.031028
0.664268 0.050831 0.031028
0.689645 0.051966 0.031175
0.713341 0.053984 0.031435
0.738706 0.055921 0.032631
0.765071 0.057809 0.034389
0.785977 0.058399 0.034938
0.804400 0.058399 0.034938
0.820187 0.061328 0.037868
0.835095 0.065234 0.041774
0.846512 0.069140 0.045574
0.857123 0.073046 0.049350
0.867620 0.081680 0.056543
0.878101 0.090989 0.064225
0.885043 0.095111 0.066475
0.891748 0.098887 0.068363
0.182386 0.031281 0.031281
0.200744 0.032973 0.032973
0.220673 0.034820 0.034601
0.264160 0.038987 0.035252
0.301657 0.042616 0.035740
0.297230 0.042486 0.035089
0.302507 0.042380 0.034243
0.349835 0.042380 0.032550
0.406114 0.043975 0.032290
0.489247 0.050355 0.036326
0.559705 0.054843 0.038206
0.602281 0.055168 0.035341
0.631527 0.055811 0.034430
0.638558 0.056983 0.036773
0.640376 0.056104 0.036041
0.635494 0.052589 0.031354
0.635885 0.050831 0.029010
0.641548 0.050831 0.029010
0.655012 0.051966 0.030328
0.674542 0.053984 0.032672
0.698995 0.055270 0.033347
0.726402 0.056116 0.033022
0.749065 0.056381 0.032920
0.769571 0.056381 0.032920
0.790566 0.058529 0.035069
0.811724 0.061393 0.037933
0.827698 0.064258 0.039845
0.842475 0.067122 0.041538
0.856228 0.070157 0.045737
0.869834 0.073217 0.050294
0.881853 0.074995 0.051372
0.893766 0.076688 0.052218
0.197395 0.031281 0.031281
0.210741 0.031281 0.031281
0.228456 0.031887 0.031508
0.311719 0.041587 0.035154
0.379667 0.049415 0.037888
0.340412 0.044142 0.034243
0.308798 0.039821 0.031281
0.310295 0.039626 0.031281
0.339492 0.041351 0.032241
0.451790 0.048837 0.036082
0.550335 0.054554 0.038092
0.618625 0.056377 0.036074
0.668483 0.058419 0.036326
0.687623 0.060828 0.040362
0.687965 0.060047 0.039699
0.664138 0.055164 0.032993
0.647147 0.052821 0.029738
0.636991 0.053016 0.029934
0.639982 0.053577 0.031411
0.653197 0.054424 0.033885
0.673492 0.054741 0.033673
0.698035 0.054741 0.031850
0.719758 0.054741 0.031281
0.740199 0.054741 0.031281
0.764839 0.056255 0.032794
0.790879 0.058273 0.034812
0.810837 0.060291 0.035191
0.829390 0.062309 0.035191
0.846178 0.060795 0.036786
0.862713 0.058777 0.038608
0.878882 0.058651 0.038905
0.895027 0.058651 0.039101
0.207486 0.031281 0.031281
0.216665 0.031281 0.031281
0.231321 0.031757 0.031378
0.328124 0.039373 0.032941
0.414040 0.045900 0.034112
0.423740 0.044793 0.032550
0.423309 0.043662 0.031281
0.378976 0.042425 0.031281
0.354010 0.042588 0.031980
0.387146 0.046949 0.034780
0.437452 0.050192 0.036074
0.525532 0.050973 0.034055
0.601821 0.053146 0.034308
0.658458 0.057638 0.038344
0.694930 0.060763 0.040871
0.705476 0.062130 0.041456
0.710880 0.063432 0.042368
0.711140 0.064669 0.043605
0.709899 0.062170 0.040850
0.707490 0.056767 0.034991
0.709557 0.054741 0.032306
0.714310 0.054741 0.031525
0.723403 0.054741 0.031281
0.734470 0.054741 0.031281
0.755986 0.056255 0.032794
0.780984 0.058273 0.034812
0.802439 0.060291 0.035191
0.823076 0.062309 0.035191
0.841946 0.060795 0.035874
0.860565 0.058777 0.036655
0.876864 0.058651 0.037864
0.893009 0.058651 0.039101
0.222622 0.031785 0.031281
0.227895 0.031785 0.031281
0.239051 0.032147 0.031281
0.338459 0.037941 0.031281
0.432382 0.043458 0.031411
0.487912 0.047039 0.032452
0.520177 0.049472 0.033201
0.451627 0.046933 0.032680
0.391833 0.045273 0.032664
0.358306 0.046249 0.034161
0.361887 0.046921 0.034641
0.447103 0.046921 0.032884
0.531171 0.048996 0.033103
0.613327 0.054529 0.036619
0.677597 0.059949 0.040675
0.718871 0.065222 0.045428
0.746799 0.068998 0.048943
0.761381 0.071276 0.051221
0.762744 0.068648 0.047311
0.753825 0.062203 0.038588
0.745639 0.060274 0.035805
0.737892 0.061056 0.036586
0.737530 0.059151 0.035040
0.740525 0.056027 0.032436
0.756702 0.056564 0.033103
0.777274 0.058321 0.034861
0.798110 0.060291 0.035191
0.819007 0.062309 0.035191
0.838822 0.060795 0.035191
0.858482 0.058777 0.035191
0.875335 0.058651 0.037327
0.892000 0.058651 0.039605
0.252893 0.033803 0.031281
0.255041 0.033803 0.031281
0.261381 0.034100 0.031281
0.330582 0.038852 0.031281
0.402631 0.044240 0.031932
0.494618 0.054070 0.037140
0.564120 0.061190 0.040883
0.536192 0.056568 0.038279
0.499573 0.052304 0.036179
0.436882 0.049114 0.035593
0.398278 0.046921 0.034967
0.412665 0.046921 0.034251
0.448559 0.048215 0.034340
0.520300 0.051665 0.035772
0.587369 0.054546 0.036379
0.648433 0.056694 0.035923
0.699276 0.059428 0.037355
0.739898 0.062748 0.040675
0.764372 0.068778 0.044838
0.776285 0.076916 0.049655
0.781770 0.082408 0.053903
0.783397 0.086314 0.057809
0.783100 0.076794 0.050078
0.781928 0.061170 0.037058
0.786127 0.057801 0.034340
0.792116 0.058517 0.035056
0.805987 0.060291 0.035191
0.821676 0.062309 0.035191
0.839017 0.060795 0.035191
0.856594 0.058777 0.035191
0.875269 0.058651 0.038303
0.894018 0.058651 0.041623
0.286949 0.036452 0.031281
0.287274 0.036452 0.031281
0.290179 0.036664 0.031281
0.331778 0.040049 0.031281
0.382361 0.044573 0.032127
0.495830 0.057072 0.038897
0.590160 0.066520 0.044008
0.601552 0.062744 0.041924
0.591608 0.058317 0.039613
0.517655 0.051938 0.036619
0.453344 0.047450 0.034662
0.410248 0.047124 0.034987
0.403258 0.047556 0.035191
0.456445 0.049248 0.035191
0.516324 0.050200 0.033567
0.584810 0.050200 0.029856
0.647501 0.052056 0.029531
0.704398 0.055766 0.032591
0.746428 0.066142 0.040777
0.776895 0.081700 0.052951
0.797027 0.090912 0.060893
0.810959 0.096315 0.066296
0.814551 0.086502 0.058362
0.813445 0.069771 0.044366
0.811850 0.065832 0.041111
0.810092 0.066158 0.041436
0.818278 0.065478 0.039646
0.828760 0.064567 0.037367
0.842488 0.061833 0.036228
0.856679 0.058838 0.035252
0.875571 0.058651 0.038669
0.894775 0.058651 0.042380
0.329329 0.040488 0.031281
0.330696 0.040488 0.031281
0.333210 0.040570 0.031281
0.352936 0.041872 0.031281
0.382947 0.043922 0.031606
0.484958 0.051213 0.034210
0.576814 0.057797 0.037107
0.624663 0.061312 0.041273
0.649092 0.062093 0.042868
0.603261 0.054672 0.036749
0.549497 0.049142 0.032969
0.478277 0.047775 0.034336
0.440039 0.047165 0.035191
0.456770 0.047816 0.035191
0.487485 0.048182 0.034023
0.536180 0.048182 0.031354
0.586372 0.049517 0.029987
0.638061 0.052186 0.029922
0.685430 0.057418 0.033225
0.729437 0.064644 0.039150
0.766365 0.069429 0.043446
0.799045 0.072749 0.046766
0.814942 0.078755 0.051787
0.823210 0.085981 0.057581
0.829427 0.088813 0.060055
0.834960 0.090180 0.061422
0.840282 0.082079 0.053903
0.845555 0.071793 0.044333
0.853164 0.065153 0.039548
0.861106 0.059033 0.035447
0.876677 0.058651 0.037693
0.892757 0.058651 0.040362
0.373222 0.043011 0.031281
0.375240 0.043011 0.031281
0.377438 0.043011 0.031281
0.382320 0.043011 0.031281
0.396740 0.043466 0.031281
0.477919 0.047112 0.031281
0.558074 0.051441 0.032574
0.633785 0.058732 0.039475
0.686239 0.062964 0.043414
0.668923 0.058016 0.038466
0.631710 0.053496 0.034963
0.550726 0.049915 0.034637
0.492567 0.047531 0.034580
0.472451 0.047141 0.034971
0.475319 0.046921 0.034308
0.507739 0.046921 0.032290
0.546213 0.047930 0.030271
0.590742 0.049948 0.028253
0.637541 0.051746 0.028506
0.686105 0.053374 0.030524
0.731089 0.055001 0.032298
0.773925 0.056629 0.033925
0.800246 0.069714 0.044504
0.819060 0.088007 0.059151
0.833675 0.094680 0.064620
0.846890 0.097479 0.067029
0.853546 0.090916 0.061715
0.858689 0.082193 0.054619
0.863206 0.075064 0.049118
0.867632 0.068164 0.043845
0.879688 0.067000 0.044675
0.892252 0.066219 0.045912
0.419639 0.043011 0.031281
0.421657 0.043011 0.031281
0.423659 0.043011 0.031281
0.425416 0.043011 0.031281
0.432545 0.043336 0.031281
0.477268 0.045940 0.031281
0.530341 0.049033 0.031989
0.619593 0.054241 0.035764
0.689494 0.058993 0.039442
0.701343 0.062378 0.042828
0.690691 0.062284 0.043100
0.630538 0.054538 0.036525
0.571338 0.049159 0.032953
0.513724 0.047726 0.034385
0.490943 0.046921 0.034308
0.512947 0.046921 0.032290
0.541005 0.047930 0.030271
0.575118 0.049948 0.028253
0.611501 0.051160 0.028506
0.649649 0.051746 0.030524
0.688123 0.052332 0.031647
0.726793 0.052918 0.032233
0.760405 0.058517 0.036041
0.791718 0.066394 0.041314
0.815707 0.072025 0.045220
0.837255 0.076908 0.048670
0.852244 0.086815 0.058785
0.865720 0.097882 0.070438
0.872189 0.095961 0.069104
0.877658 0.092186 0.065914
0.885873 0.089264 0.064921
0.894270 0.086400 0.064075
0.463406 0.043894 0.031281
0.464969 0.043894 0.031281
0.466433 0.043894 0.031281
0.466433 0.043894 0.031281
0.468777 0.044089 0.031281
0.487526 0.045651 0.031281
0.518700 0.047592 0.031488
0.603721 0.051173 0.032595
0.677056 0.056104 0.035785
0.715335 0.065088 0.045224
0.729791 0.068680 0.048988
0.691838 0.060413 0.040264
0.641166 0.053976 0.034885
0.569295 0.050591 0.035081
0.527957 0.048288 0.034308
0.525874 0.047377 0.032290
0.538959 0.047930 0.030499
0.567212 0.049948 0.028937
0.597480 0.050831 0.028876
0.629314 0.050831 0.029983
0.662531 0.050831 0.030682
0.696578 0.050831 0.031138
0.730760 0.052218 0.031281
0.765002 0.054236 0.031281
0.794606 0.058598 0.033966
0.822665 0.063741 0.037546
0.844164 0.079040 0.052552
0.864150 0.096682 0.070194
0.873939 0.099513 0.072627
0.882272 0.100230 0.072888
0.888896 0.101617 0.074857
0.895406 0.103049 0.076940
0.503768 0.045912 0.031281
0.504289 0.045912 0.031281
0.504777 0.045912 0.031281
0.504777 0.045912 0.031281
0.505558 0.045977 0.031281
0.511808 0.046498 0.031281
0.527749 0.047397 0.031097
0.585688 0.049936 0.030121
0.644441 0.054607 0.032530
0.705635 0.065674 0.045094
0.743332 0.072001 0.051982
0.729336 0.067899 0.046384
0.699495 0.062895 0.041395
0.643249 0.056385 0.037424
0.592471 0.051413 0.034308
0.548724 0.048418 0.032290
0.540977 0.047930 0.031020
0.569230 0.049948 0.030499
0.598912 0.050831 0.029722
0.629704 0.050831 0.028746
0.659276 0.050831 0.029315
0.688115 0.050831 0.030813
0.714224 0.052218 0.031281
0.739092 0.054236 0.031281
0.769478 0.057036 0.033185
0.801702 0.060095 0.035724
0.827368 0.066540 0.042071
0.851520 0.073766 0.049297
0.866387 0.080765 0.054985
0.879928 0.087730 0.060453
0.887854 0.101226 0.071537
0.895406 0.115158 0.082994
0.538076 0.046921 0.030271
0.538597 0.047442 0.030792
0.539052 0.047897 0.031248
0.538532 0.047377 0.030727
0.538141 0.046986 0.030337
0.538662 0.047507 0.030857
0.545261 0.048211 0.030902
0.578202 0.049708 0.028884
0.620940 0.053207 0.030251
0.693071 0.062712 0.041774
0.745285 0.070080 0.049899
0.753683 0.072749 0.050550
0.743503 0.071000 0.048101
0.702360 0.061886 0.040484
0.653014 0.054765 0.034861
0.593122 0.050208 0.031801
0.568449 0.048679 0.030532
0.578995 0.050176 0.031053
0.600344 0.050831 0.030145
0.630095 0.050831 0.028127
0.657323 0.050831 0.028632
0.683037 0.050831 0.030650
0.705664 0.052218 0.031281
0.726886 0.054236 0.031281
0.755579 0.056255 0.032794
0.786762 0.058273 0.034812
0.813502 0.060291 0.036407
0.839216 0.062309 0.037904
0.857013 0.068656 0.043332
0.873679 0.075622 0.049321
0.884729 0.090583 0.061902
0.895406 0.106076 0.074922
0.566329 0.046921 0.028253
0.567892 0.048483 0.029816
0.569259 0.049850 0.031183
0.567696 0.048288 0.029620
0.566525 0.047116 0.028449
0.568087 0.048679 0.030011
0.571236 0.050033 0.030902
0.581262 0.050489 0.028884
0.606553 0.051905 0.028949
0.677642 0.056202 0.035264
0.735650 0.062919 0.042738
0.764880 0.074963 0.052764
0.773189 0.078291 0.055001
0.746628 0.067094 0.044260
0.709586 0.058346 0.035968
0.659068 0.052747 0.030825
0.621375 0.050176 0.029035
0.596507 0.050632 0.030597
0.601776 0.050831 0.030145
0.630485 0.050831 0.028127
0.656672 0.050831 0.028632
0.681345 0.050831 0.030650
0.705078 0.052218 0.031281
0.728383 0.054236 0.031281
0.752910 0.056255 0.032794
0.777843 0.058273 0.034812
0.802565 0.060291 0.035561
0.827238 0.062309 0.036017
0.845816 0.063188 0.037668
0.863523 0.063904 0.039491
0.879521 0.069685 0.045952
0.895406 0.075805 0.052723
0.596853 0.048056 0.027370
0.598871 0.049488 0.029389
0.600637 0.050741 0.031154
0.598619 0.049309 0.029136
0.597032 0.048235 0.027550
0.598464 0.049667 0.028982
0.599738 0.050941 0.030097
0.600324 0.051527 0.029836
0.614174 0.052324 0.030210
0.667816 0.053756 0.032489
0.718509 0.059237 0.037921
0.762712 0.073624 0.050290
0.786286 0.080931 0.056116
0.775479 0.076440 0.051038
0.752169 0.068957 0.043739
0.712784 0.057630 0.033583
0.672617 0.051673 0.029222
0.631669 0.051087 0.030654
0.622067 0.050831 0.030475
0.636845 0.050831 0.029043
0.657522 0.050831 0.029401
0.681739 0.050831 0.030833
0.705151 0.051816 0.031281
0.728196 0.053248 0.031281
0.751046 0.055119 0.032355
0.773831 0.057137 0.033787
0.797304 0.059632 0.034531
0.820935 0.062236 0.035117
0.839782 0.060795 0.035191
0.857945 0.058777 0.035191
0.876108 0.059994 0.038425
0.894270 0.061426 0.041876
0.629143 0.050074 0.027370
0.631161 0.050465 0.029389
0.632927 0.050806 0.031154
0.630908 0.050416 0.029136
0.629191 0.050123 0.027419
0.629582 0.050514 0.027810
0.630205 0.051136 0.028664
0.631832 0.052764 0.031529
0.638912 0.054082 0.033465
0.662348 0.054472 0.032619
0.695528 0.058260 0.034926
0.750147 0.069523 0.044170
0.786481 0.079955 0.052731
0.792340 0.089004 0.060152
0.783873 0.085037 0.056694
0.756987 0.064335 0.039247
0.722549 0.053170 0.030719
0.680559 0.051543 0.031110
0.657026 0.050831 0.031061
0.647847 0.050831 0.030670
0.659540 0.050831 0.030768
0.683757 0.050831 0.031158
0.705737 0.051099 0.031281
0.726699 0.051490 0.031281
0.749810 0.053101 0.031573
0.773636 0.055119 0.031964
0.796458 0.058460 0.033360
0.819047 0.062105 0.034987
0.837764 0.060795 0.035191
0.855927 0.058777 0.035191
0.874089 0.059017 0.037449
0.892252 0.059408 0.039857
0.656387 0.050831 0.028632
0.657754 0.050831 0.029999
0.658991 0.050872 0.031195
0.658275 0.051523 0.029828
0.657648 0.052011 0.028632
0.657648 0.051360 0.028632
0.657783 0.051087 0.029144
0.658499 0.052454 0.031879
0.661249 0.053480 0.033588
0.670103 0.053480 0.032220
0.691224 0.055819 0.032989
0.739333 0.063306 0.038458
0.777115 0.072794 0.046172
0.797687 0.085619 0.057630
0.802679 0.086510 0.058948
0.787641 0.072058 0.047230
0.762187 0.061869 0.039093
0.726317 0.055945 0.034536
0.697111 0.052987 0.032176
0.673089 0.052336 0.031525
0.673114 0.051685 0.031281
0.687566 0.051034 0.031281
0.706404 0.051278 0.031728
0.727236 0.051929 0.032379
0.750119 0.053606 0.032054
0.773685 0.055624 0.031403
0.795611 0.058224 0.032920
0.817160 0.060958 0.034938
0.836315 0.060104 0.035191
0.855129 0.058736 0.035191
0.873333 0.058651 0.037083
0.891496 0.058651 0.039101
0.680604 0.050831 0.030650
0.680930 0.050831 0.030975
0.681320 0.050937 0.031260
0.682687 0.052629 0.030935
0.683884 0.053899 0.030650
0.683884 0.052206 0.030650
0.683627 0.050892 0.030772
0.682260 0.051217 0.031423
0.682146 0.051462 0.031830
0.685792 0.051462 0.031504
0.698124 0.052499 0.031687
0.729568 0.055819 0.032989
0.762012 0.061922 0.037709
0.796124 0.072664 0.048125
0.813746 0.079219 0.054782
0.810165 0.080390 0.056604
0.795648 0.074889 0.051592
0.770194 0.062716 0.039744
0.740272 0.056438 0.033608
0.706876 0.054745 0.031915
0.693620 0.053052 0.031281
0.692448 0.051360 0.031281
0.707120 0.051995 0.032444
0.728994 0.053687 0.034137
0.751356 0.055624 0.033291
0.773880 0.057642 0.031598
0.794765 0.058549 0.032920
0.815272 0.059200 0.034938
0.835209 0.058997 0.035191
0.855064 0.058671 0.035191
0.873333 0.058651 0.037083
0.891496 0.058651 0.039101
0.703434 0.052218 0.031281
0.703434 0.052218 0.031281
0.703515 0.052300 0.031281
0.704817 0.053602 0.031281
0.705957 0.054578 0.031281
0.705957 0.053276 0.031281
0.705847 0.052218 0.031415
0.705261 0.052218 0.032131
0.704968 0.052218 0.032489
0.705554 0.052218 0.031773
0.711470 0.052625 0.031281
0.729112 0.053927 0.031281
0.754249 0.057451 0.033990
0.791876 0.064677 0.041216
0.815235 0.075463 0.051376
0.820248 0.090827 0.065308
0.815235 0.089655 0.064136
0.800197 0.071948 0.047861
0.776004 0.061857 0.038397
0.744691 0.057691 0.034230
0.725137 0.054867 0.032220
0.712637 0.052849 0.031504
0.718085 0.053113 0.032668
0.731691 0.054415 0.034686
0.751742 0.056255 0.033677
0.773941 0.058273 0.031659
0.795083 0.059233 0.032920
0.815980 0.059949 0.034938
0.835624 0.059412 0.035191
0.855088 0.058696 0.035191
0.873333 0.058651 0.037083
0.891496 0.058651 0.039101
0.725633 0.054236 0.031281
0.725633 0.054236 0.031281
0.725649 0.054253 0.031281
0.725910 0.054513 0.031281
0.726138 0.054708 0.031281
0.726138 0.054448 0.031281
0.726418 0.054236 0.031610
0.727916 0.054236 0.033368
0.728664 0.054236 0.034247
0.727167 0.054236 0.032489
0.727745 0.054318 0.031281
0.732888 0.054578 0.031281
0.749822 0.055888 0.032428
0.786408 0.058948 0.035488
0.812371 0.073315 0.048316
0.824675 0.102219 0.073705
0.828515 0.105214 0.076700
0.823893 0.082299 0.057300
0.808359 0.068172 0.044711
0.784337 0.060881 0.037420
0.761658 0.056885 0.033588
0.739784 0.054867 0.031830
0.733709 0.054415 0.032668
0.734816 0.054676 0.034686
0.751742 0.056255 0.033677
0.773941 0.058273 0.031659
0.795929 0.060079 0.032920
0.817868 0.061837 0.034938
0.836730 0.060519 0.035191
0.855154 0.058761 0.035191
0.873333 0.058651 0.037083
0.891496 0.058651 0.039101
0.749346 0.054741 0.031281
0.749346 0.055522 0.032062
0.749346 0.056255 0.032794
0.749346 0.056255 0.032794
0.749346 0.056255 0.032794
0.749346 0.056255 0.032794
0.749724 0.056255 0.033026
0.751742 0.056255 0.034263
0.752751 0.056255 0.034686
0.750733 0.056255 0.032668
0.749732 0.056255 0.031281
0.750969 0.056255 0.031281
0.761849 0.056718 0.032037
0.788800 0.057955 0.034055
0.811508 0.068676 0.043792
0.828760 0.091592 0.063452
0.837939 0.101877 0.072957
0.839045 0.099534 0.072306
0.829679 0.086937 0.061328
0.812167 0.066365 0.042319
0.791929 0.057878 0.034418
0.770056 0.056641 0.033181
0.759684 0.056255 0.033644
0.754541 0.056255 0.034881
0.762874 0.057182 0.033677
0.775699 0.058419 0.031659
0.796140 0.060291 0.032920
0.818339 0.062309 0.034938
0.837007 0.060795 0.035191
0.855170 0.058777 0.035191
0.873333 0.058651 0.037083
0.891496 0.058651 0.039101
0.773563 0.054741 0.031281
0.773563 0.056564 0.033103
0.773563 0.058273 0.034812
0.773563 0.058273 0.034812
0.773563 0.058273 0.034812
0.773563 0.058273 0.034812
0.773941 0.058273 0.034849
0.775959 0.058273 0.035044
0.776968 0.058273 0.034686
0.774950 0.058273 0.032668
0.773624 0.058273 0.031281
0.773819 0.058273 0.031281
0.779361 0.058346 0.032037
0.793813 0.058541 0.034055
0.811313 0.063208 0.038779
0.832731 0.073624 0.046982
0.846076 0.092243 0.063778
0.851349 0.119064 0.089167
0.847321 0.109852 0.081379
0.836059 0.072615 0.047787
0.820118 0.058529 0.035069
0.801369 0.058334 0.034873
0.789110 0.058273 0.034946
0.779800 0.058273 0.035142
0.777717 0.058419 0.033677
0.778043 0.058614 0.031659
0.796140 0.060291 0.032920
0.818339 0.062309 0.034938
0.837007 0.060795 0.035191
0.855170 0.058777 0.035191
0.873333 0.058651 0.037083
0.891496 0.058651 0.039101
0.796140 0.058020 0.032920
0.796140 0.059192 0.034092
0.796140 0.060291 0.035191
0.796140 0.060291 0.035191
0.796140 0.060291 0.035191
0.796140 0.060291 0.035191
0.796360 0.060291 0.035191
0.797532 0.060291 0.035191
0.798118 0.060291 0.034898
0.796946 0.060291 0.033726
0.796140 0.060291 0.032920
0.796140 0.060291 0.032920
0.798777 0.060291 0.033360
0.805808 0.060291 0.034531
0.817994 0.061971 0.036729
0.836808 0.065812 0.040244
0.850088 0.083454 0.055868
0.857835 0.114897 0.083601
0.858404 0.114043 0.082917
0.853392 0.088068 0.060132
0.843334 0.071980 0.046298
0.830249 0.061825 0.037835
0.817477 0.059233 0.035191
0.804848 0.060079 0.035191
0.799542 0.060291 0.034312
0.796677 0.060291 0.033140
0.806613 0.061243 0.033872
0.819503 0.062415 0.035044
0.837007 0.060795 0.035191
0.855170 0.058777 0.035191
0.873333 0.058651 0.037083
0.891496 0.058651 0.039101
0.818339 0.062057 0.034938
0.818339 0.062187 0.035069
0.818339 0.062309 0.035191
0.818339 0.062309 0.035191
0.818339 0.062309 0.035191
0.818339 0.062309 0.035191
0.818364 0.062309 0.035191
0.818494 0.062309 0.035191
0.818559 0.062309 0.035158
0.818429 0.062309 0.035028
0.818339 0.062309 0.034938
0.818339 0.062309 0.034938
0.818632 0.062309 0.034987
0.819414 0.062309 0.035117
0.826261 0.061711 0.035362
0.840909 0.060344 0.035752
0.853148 0.074861 0.048251
0.862978 0.105263 0.072859
0.867974 0.113913 0.080183
0.869211 0.105645 0.074063
0.865403 0.088385 0.059969
0.858567 0.065731 0.041090
