filters/aerochrome.cube
# LUT by SparkleStock. Enhanced with VOXCOLOR algorithms.
LUT_3D_SIZE 8
DOMAIN_MIN 0.000000 0.000000 0.000000
DOMAIN_MAX 0.903226 0.903226 0.903226
0.019550 0.019550 0.019550
0.241541 0.032037 0.031281
0.556113 0.047425 0.031281
0.704317 0.051588 0.031281
0.775329 0.058651 0.035191
0.807871 0.059912 0.035191
0.840412 0.061048 0.035191
0.871188 0.058651 0.036956
0.166241 0.031281 0.031281
0.213577 0.033437 0.032224
0.491460 0.047490 0.032290
0.570658 0.051384 0.031630
0.636731 0.050831 0.031028
0.738706 0.055921 0.032631
0.820187 0.061328 0.037868
0.867620 0.081680 0.056543
0.222622 0.031785 0.031281
0.432382 0.043458 0.031411
0.391833 0.045273 0.032664
0.531171 0.048996 0.033103
0.746799 0.068998 0.048943
0.745639 0.060274 0.035805
0.756702 0.056564 0.033103
0.838822 0.060795 0.035191
0.373222 0.043011 0.031281
0.396740 0.043466 0.031281
0.686239 0.062964 0.043414
0.492567 0.047531 0.034580
0.546213 0.047930 0.030271
0.731089 0.055001 0.032298
0.833675 0.094680 0.064620
0.863206 0.075064 0.049118
0.538076 0.046921 0.030271
0.538141 0.046986 0.030337
0.620940 0.053207 0.030251
0.743503 0.071000 0.048101
0.568449 0.048679 0.030532
0.657323 0.050831 0.028632
0.755579 0.056255 0.032794
0.857013 0.068656 0.043332
0.656387 0.050831 0.028632
0.657648 0.052011 0.028632
0.661249 0.053480 0.033588
0.777115 0.072794 0.046172
0.762187 0.061869 0.039093
0.673114 0.051685 0.031281
0.750119 0.053606 0.032054
0.836315 0.060104 0.035191
0.749346 0.054741 0.031281
0.749346 0.056255 0.032794
0.752751 0.056255 0.034686
0.761849 0.056718 0.032037
0.837939 0.101877 0.072957
0.791929 0.057878 0.034418
0.762874 0.057182 0.033677
0.837007 0.060795 0.035191
0.837007 0.060795 0.035191
0.837121 0.060795 0.035191
0.837235 0.060795 0.035191
0.838431 0.060795 0.036615
0.859226 0.066951 0.042287
0.877560 0.117721 0.087767
0.843566 0.060795 0.036273
0.847488 0.059827 0.035988
0.020055 0.039605 0.043515
0.118881 0.031045 0.031045
0.236679 0.032257 0.031281
0.413003 0.043011 0.031281
0.564690 0.050644 0.031215
0.667442 0.050831 0.031110
0.758077 0.056255 0.032794
0.840665 0.060795 0.035191
0.031618 0.127950 0.138126
0.126885 0.131175 0.123369
0.248383 0.143372 0.131138
0.422380 0.149647 0.129428
0.570114 0.152973 0.125232
0.678380 0.156799 0.127999
0.765535 0.153217 0.125484
0.845277 0.156896 0.128670
0.463068 0.155438 0.137451
0.305482 0.084890 0.074559
0.359789 0.095119 0.081843
0.509085 0.117925 0.096433
0.594850 0.146644 0.115192
0.665732 0.147477 0.114699
0.758319 0.152125 0.128022
0.846739 0.158430 0.129849
0.624618 0.070833 0.050575
0.525996 0.054984 0.041274
0.624249 0.066050 0.047698
0.558865 0.063213 0.048208
0.664568 0.068371 0.047413
0.787850 0.116073 0.088085
0.809640 0.123930 0.097328
0.855382 0.139132 0.107990
0.598224 0.052393 0.031647
0.657177 0.051860 0.031402
0.661744 0.053443 0.031001
0.780934 0.072713 0.049113
0.675137 0.053502 0.033716
0.748369 0.056111 0.032150
0.848299 0.066610 0.041561
0.895739 0.140519 0.109722
0.663609 0.053480 0.033758
0.746492 0.053524 0.032542
0.752585 0.056070 0.034548
0.767140 0.061051 0.035526
0.820577 0.078441 0.052804
0.762713 0.056972 0.033105
0.836193 0.059535 0.035484
0.891528 0.087934 0.062398
0.749403 0.054741 0.031281
0.834817 0.060908 0.035301
0.834655 0.059139 0.035581
0.836936 0.061205 0.035627
0.861196 0.079156 0.054068
0.855835 0.071981 0.047198
0.845076 0.060693 0.035856
0.888672 0.087210 0.062387
0.836869 0.058651 0.035191
0.887584 0.084804 0.058024
0.890756 0.087096 0.061611
0.888112 0.087576 0.063291
0.889797 0.088868 0.063251
0.895365 0.148174 0.115302
0.890278 0.093147 0.065687
0.893382 0.096380 0.070966
0.027370 0.051840 0.055750
0.068831 0.026646 0.026646
0.217019 0.031785 0.031281
0.377132 0.043670 0.031940
0.538076 0.047800 0.030271
0.660297 0.052092 0.031281
0.749346 0.055945 0.032794
0.836730 0.060519 0.035191
0.025987 0.103240 0.122604
0.110355 0.138010 0.130711
0.221153 0.134549 0.128686
0.391157 0.148113 0.128631
0.544663 0.148041 0.125911
0.662063 0.148033 0.117330
0.755526 0.146158 0.122132
0.843224 0.149086 0.118884
0.041058 0.202730 0.247014
0.133637 0.213179 0.219753
0.239686 0.254288 0.232308
0.397777 0.268293 0.244687
0.561309 0.276541 0.239967
0.679668 0.279472 0.238715
0.773910 0.286435 0.238818
0.860695 0.290105 0.240632
0.492180 0.535867 0.516963
0.662519 0.307892 0.267763
0.469561 0.202676 0.174112
0.491146 0.210879 0.182313
0.602409 0.237686 0.199889
0.691663 0.268821 0.226995
0.778864 0.292547 0.243664
0.860879 0.298603 0.247413
0.758655 0.275914 0.235768
0.741016 0.100665 0.075416
0.661759 0.139169 0.106192
0.670197 0.156530 0.125536
0.676233 0.151757 0.122629
0.762088 0.151672 0.125104
0.831604 0.209753 0.167797
0.887416 0.249747 0.200542
0.792934 0.130684 0.101621
0.761226 0.058566 0.034094
0.797105 0.093804 0.065167
0.797359 0.103567 0.074580
0.815881 0.128761 0.097290
0.806796 0.097926 0.070604
0.882880 0.103601 0.075726
0.904613 0.197934 0.156784
0.798171 0.067061 0.041583
0.835714 0.058944 0.035471
0.887966 0.087900 0.060489
0.888134 0.096084 0.068650
0.887715 0.101870 0.073507
0.891422 0.127435 0.094724
0.888495 0.098898 0.069527
0.903856 0.193184 0.154650
0.837027 0.060795 0.035418
0.889144 0.087096 0.061852
0.899309 0.182123 0.143607
0.899946 0.189328 0.149649
0.901332 0.189876 0.151583
0.901749 0.209084 0.166023
0.900895 0.198482 0.159220
0.905849 0.208085 0.165932
0.019550 0.067228 0.071138
0.044329 0.021674 0.019957
0.165724 0.031028 0.030621
0.375301 0.043011 0.031281
0.539280 0.047930 0.031281
0.659784 0.051075 0.030768
0.749346 0.056255 0.032794
0.834863 0.058651 0.035191
0.021064 0.113266 0.136271
0.106173 0.150399 0.147216
0.166931 0.133669 0.125232
0.384499 0.145215 0.128720
0.546685 0.148345 0.123433
0.662096 0.148133 0.117317
0.757185 0.150641 0.125339
0.841315 0.148767 0.120441
0.021975 0.164235 0.198543
0.109028 0.217919 0.230534
0.222933 0.279618 0.260539
0.387412 0.282344 0.258761
0.556239 0.287436 0.246921
0.679127 0.288481 0.246022
0.775420 0.293346 0.246240
0.858838 0.293995 0.243572
0.039825 0.262080 0.320089
0.112933 0.303939 0.331317
0.236192 0.355674 0.354595
0.388937 0.425325 0.396275
0.556574 0.443769 0.404451
0.678677 0.451659 0.398890
0.781147 0.460237 0.404072
0.866841 0.469809 0.393253
0.383463 0.668268 0.706221
0.700141 0.728291 0.715645
0.592154 0.319905 0.282728
0.616610 0.366920 0.316788
0.632279 0.379912 0.326240
0.715612 0.406635 0.351649
0.794934 0.449780 0.387860
0.869615 0.473939 0.398374
0.820569 0.676649 0.634664
0.853855 0.438695 0.380741
0.797352 0.161453 0.129593
0.772365 0.273745 0.228840
0.769222 0.295152 0.247539
0.782639 0.290960 0.243493
0.865812 0.303257 0.248580
0.907404 0.397051 0.327732
0.839578 0.421091 0.356813
0.866265 0.182156 0.148465
0.886321 0.099260 0.070772
0.885684 0.216304 0.171104
0.881383 0.228784 0.183930
0.887657 0.252212 0.201652
0.894712 0.237522 0.189117
0.917855 0.351367 0.290490
0.863079 0.231813 0.187362
0.890053 0.101936 0.071914
0.901155 0.187222 0.149348
0.911112 0.330908 0.272494
0.909912 0.344165 0.284757
0.913637 0.351603 0.289082
0.914425 0.366733 0.301808
0.914956 0.371200 0.306934
0.019550 0.073408 0.085139
0.029006 0.029128 0.029698
0.106951 0.027875 0.026117
0.298113 0.036704 0.031281
0.537327 0.047930 0.031020
0.659613 0.054057 0.033571
0.748955 0.055864 0.031281
0.836173 0.058651 0.036501
0.019681 0.126766 0.149026
0.105905 0.164646 0.163157
0.137736 0.129004 0.120662
0.297005 0.141292 0.129107
0.541559 0.145221 0.119864
0.661758 0.147795 0.117528
0.754565 0.145422 0.117595
0.842407 0.151089 0.121657
0.027875 0.182382 0.227411
0.108623 0.230865 0.245700
0.215118 0.289796 0.274546
0.308313 0.276187 0.250827
0.553054 0.283778 0.245838
0.675742 0.284909 0.242694
0.773395 0.292785 0.244190
0.858193 0.292999 0.241835
0.031281 0.239365 0.293166
0.108737 0.297603 0.334450
0.209593 0.373558 0.381939
0.349120 0.451610 0.431103
0.542568 0.457603 0.419236
0.679066 0.467947 0.414459
0.781046 0.471693 0.414045
0.868629 0.478705 0.401932
0.037270 0.304233 0.374988
0.097076 0.388843 0.457910
0.199372 0.444229 0.473381
0.367205 0.529346 0.527223
0.555435 0.586826 0.558925
0.684386 0.599525 0.564876
0.786134 0.602218 0.558693
0.872776 0.610646 0.555580
0.297731 0.688823 0.755966
0.599198 0.795463 0.821798
0.611677 0.644947 0.627099
0.699698 0.488826 0.441775
0.737106 0.545876 0.497975
0.744986 0.549718 0.504160
0.817929 0.570507 0.516483
0.886069 0.606776 0.547813
0.831803 0.852838 0.841413
0.901494 0.796897 0.765796
0.893655 0.508262 0.446467
0.870687 0.288041 0.233861
0.867319 0.456464 0.384024
0.866778 0.480647 0.408101
0.878306 0.474783 0.403231
0.918908 0.534180 0.465996
0.893843 0.724095 0.681162
0.913130 0.567639 0.503884
0.905994 0.269184 0.218729
0.910105 0.335878 0.276601
0.922318 0.513340 0.442761
0.923300 0.527830 0.458576
0.922284 0.536653 0.468507
0.922040 0.545298 0.478174
0.022073 0.088544 0.100274
0.024522 0.040704 0.042722
0.078181 0.027370 0.022757
0.212840 0.033307 0.031281
0.480230 0.045029 0.030597
0.657734 0.050831 0.030426
0.748320 0.054456 0.031281
0.835554 0.059343 0.035191
0.022415 0.138411 0.166367
0.105607 0.176781 0.184019
0.120823 0.132871 0.123264
0.218602 0.131021 0.123711
0.471045 0.143464 0.120230
0.657414 0.144294 0.109219
0.753963 0.144849 0.117242
0.841202 0.148521 0.120329
0.031281 0.196350 0.246334
0.108447 0.250550 0.266346
0.205673 0.306561 0.292401
0.253046 0.265403 0.243081
0.469364 0.276525 0.240620
0.672346 0.283263 0.240826
0.769547 0.287473 0.239753
0.855773 0.290065 0.240533
0.031281 0.262731 0.332222
0.108550 0.316044 0.361545
0.199176 0.385398 0.402566
0.335439 0.463261 0.447880
0.465512 0.449353 0.414956
0.673163 0.463490 0.413845
0.779505 0.470471 0.414879
0.867034 0.476975 0.402790
0.032542 0.313815 0.400707
0.106876 0.389977 0.451368
0.197322 0.465801 0.508156
0.323687 0.547407 0.554676
0.524720 0.614375 0.592658
0.678902 0.617417 0.583007
0.790550 0.618324 0.576632
0.877117 0.626694 0.571375
0.039463 0.367644 0.464692
0.081316 0.464500 0.557978
0.170691 0.524384 0.580605
0.316150 0.606909 0.631953
0.557755 0.684026 0.678946
0.713619 0.722175 0.695762
0.811135 0.727466 0.692965
0.890796 0.732197 0.687136
0.233632 0.688559 0.770808
0.445934 0.788960 0.839673
0.527806 0.760401 0.790527
0.715302 0.729630 0.713776
0.825713 0.648644 0.604257
0.850737 0.681022 0.637811
0.855633 0.687051 0.642099
0.911086 0.709750 0.659493
0.778978 0.870139 0.877320
0.906920 0.907797 0.898976
0.930222 0.771806 0.739858
0.918727 0.544120 0.478202
0.923461 0.556025 0.487947
0.933263 0.666226 0.610511
0.931303 0.678659 0.625102
0.931946 0.685343 0.634303
0.024343 0.101662 0.122726
0.027525 0.054643 0.058399
0.055795 0.023196 0.020559
0.160402 0.031744 0.031281
0.367168 0.041888 0.031281
0.621225 0.050579 0.028144
0.748760 0.054741 0.031281
0.837007 0.060112 0.035191
0.022887 0.153376 0.186926
0.107092 0.195245 0.205651
0.114384 0.142796 0.138073
0.174764 0.131309 0.124058
0.365889 0.137418 0.120624
0.615403 0.144880 0.111243
0.753047 0.144940 0.118449
0.842833 0.152013 0.121981
0.031281 0.216384 0.267915
0.108599 0.264897 0.279013
0.201008 0.324410 0.317820
0.230125 0.270164 0.248104
0.378392 0.268401 0.244215
0.617286 0.278246 0.235381
0.767470 0.287327 0.240280
0.854425 0.290319 0.239915
0.031281 0.278412 0.352407
0.108347 0.337337 0.387139
0.198749 0.408908 0.430602
0.323971 0.477947 0.470270
0.400843 0.441003 0.406516
0.615859 0.460120 0.417816
0.778089 0.470549 0.415051
0.868735 0.477805 0.407313
0.035191 0.352435 0.451208
0.107338 0.420849 0.487583
0.194647 0.489259 0.534147
0.316160 0.563728 0.575281
0.517072 0.625612 0.611196
0.628362 0.616766 0.584261
0.790652 0.621826 0.578930
0.877872 0.624057 0.570606
0.034906 0.388419 0.501811
0.102832 0.476220 0.559372
0.185985 0.555175 0.609936
0.305253 0.624204 0.657235
0.522037 0.695699 0.702595
0.700300 0.747639 0.728750
0.810155 0.744821 0.712326
0.895934 0.747206 0.701546
0.038901 0.427951 0.543198
0.070398 0.534110 0.640667
0.149189 0.592730 0.673791
0.270184 0.666379 0.716289
0.521008 0.745484 0.766887
0.740062 0.807695 0.801031
0.840931 0.826173 0.802370
0.910892 0.828056 0.801902
0.183427 0.689934 0.780813
0.331030 0.775658 0.850236
0.408365 0.788072 0.848699
0.630669 0.838247 0.869892
0.831703 0.833144 0.823106
0.915200 0.784901 0.751437
0.934657 0.806439 0.770423
0.939545 0.813445 0.778914
0.023839 0.114779 0.134708
0.026866 0.068123 0.071895
0.042734 0.027370 0.020104
0.113518 0.028127 0.028127
0.274860 0.035899 0.031281
0.538133 0.048182 0.030711
0.730365 0.053174 0.032111
0.836039 0.059827 0.035191
0.027484 0.167376 0.208609
0.105874 0.212895 0.222952
0.110267 0.154684 0.151882
0.148622 0.125706 0.118761
0.289248 0.136907 0.123220
0.530109 0.142809 0.117184
0.728675 0.145194 0.117826
0.841106 0.148557 0.119423
0.031281 0.232309 0.281981
0.108599 0.282926 0.308227
0.199622 0.342417 0.344622
0.221029 0.279013 0.259336
0.311802 0.265195 0.241135
0.537703 0.275134 0.236045
0.733364 0.285626 0.239198
0.855817 0.290851 0.240128
0.032037 0.292966 0.375619
0.108208 0.356381 0.413157
0.199702 0.431161 0.456579
0.321650 0.500435 0.497426
0.372021 0.447956 0.420446
0.542846 0.454251 0.415948
0.736539 0.470870 0.414923
0.867637 0.478526 0.402213
0.035191 0.370350 0.477203
0.106545 0.439803 0.512697
0.191793 0.511279 0.556839
0.315583 0.580235 0.597968
0.510315 0.641678 0.633469
0.581933 0.614543 0.584907
0.747724 0.624881 0.585457
0.880537 0.630959 0.576885
0.037079 0.443107 0.565202
0.100445 0.511254 0.597793
0.183020 0.578405 0.639876
0.301860 0.640430 0.675714
0.521577 0.708916 0.721919
0.699118 0.761491 0.749119
0.770707 0.746331 0.718162
0.896936 0.752383 0.708232
0.039101 0.467316 0.592060
0.095220 0.552064 0.653092
0.171983 0.627394 0.699859
0.294760 0.692739 0.740301
0.516270 0.758370 0.788664
0.716591 0.818049 0.822879
0.829086 0.848555 0.833984
0.908824 0.843610 0.818693
0.038303 0.490557 0.614503
0.062823 0.600192 0.720403
0.130162 0.662690 0.755090
0.228229 0.716653 0.791221
0.462361 0.788888 0.834655
0.717284 0.855531 0.876698
0.857095 0.891490 0.889342
0.928131 0.905979 0.891591
