filters/FFkontraszt.cube
#Created by: Affinity
TITLE "ilfordhp5"
#LUT size
LUT_3D_SIZE 8
#data domain
DOMAIN_MIN 0.0 0.0 0.0
DOMAIN_MAX 1.0 1.0 1.0
#LUT data points
0.000000 0.000000 0.000000
0.084984 0.084984 0.084984
0.231822 0.231822 0.231822
0.464428 0.464428 0.464428
0.706340 0.706340 0.706340
0.876201 0.876201 0.876201
0.983761 0.983761 0.983761
1.133849 1.133849 1.133849
0.010296 0.010296 0.010296
0.038405 0.038405 0.038405
0.146448 0.146448 0.146448
0.340535 0.340535 0.340535
0.589379 0.589379 0.589379
0.801849 0.801849 0.801849
0.934192 0.934192 0.934192
1.052433 1.052433 1.052433
0.020754 0.020754 0.020754
0.050046 0.050046 0.050046
0.084429 0.084429 0.084429
0.230787 0.230787 0.230787
0.463099 0.463099 0.463099
0.705205 0.705205 0.705205
0.875516 0.875516 0.875516
0.983266 0.983266 0.983266
0.031534 0.031534 0.031534
0.062432 0.062432 0.062432
0.099522 0.099522 0.099522
0.145691 0.145691 0.145691
0.339293 0.339293 0.339293
0.588085 0.588085 0.588085
0.800964 0.800964 0.800964
0.933637 0.933637 0.933637
0.042797 0.042797 0.042797
0.075722 0.075722 0.075722
0.115942 0.115942 0.115942
0.166343 0.166343 0.166343
0.229755 0.229755 0.229755
0.461770 0.461770 0.461770
0.704067 0.704067 0.704067
0.874830 0.874830 0.874830
0.054705 0.054705 0.054705
0.090078 0.090078 0.090078
0.133849 0.133849 0.133849
0.188905 0.188905 0.188905
0.257637 0.257637 0.257637
0.338052 0.338052 0.338052
0.586790 0.586790 0.586790
0.800075 0.800075 0.800075
0.067419 0.067419 0.067419
0.105661 0.105661 0.105661
0.153406 0.153406 0.153406
0.213534 0.213534 0.213534
0.287230 0.287230 0.287230
0.370975 0.370975 0.370975
0.460441 0.460441 0.460441
0.702927 0.702927 0.702927
0.081099 0.081099 0.081099
0.122633 0.122633 0.122633
0.174772 0.174772 0.174772
0.240243 0.240243 0.240243
0.318291 0.318291 0.318291
0.404734 0.404734 0.404734
0.495244 0.495244 0.495244
0.585494 0.585494 0.585494
0.004548 0.004548 0.004548
0.084613 0.084613 0.084613
0.231129 0.231129 0.231129
0.463539 0.463539 0.463539
0.705581 0.705581 0.705581
0.875743 0.875743 0.875743
0.983430 0.983430 0.983430
1.133278 1.133278 1.133278
-0.021353 -0.021353 -0.021353
0.072930 0.072930 0.072930
0.209304 0.209304 0.209304
0.434683 0.434683 0.434683
0.680331 0.680331 0.680331
0.860409 0.860409 0.860409
0.972579 0.972579 0.972579
1.114727 1.114727 1.114727
0.000427 0.000427 0.000427
0.087055 0.087055 0.087055
0.130068 0.130068 0.130068
0.313052 0.313052 0.313052
0.560122 0.560122 0.560122
0.781364 0.781364 0.781364
0.921480 0.921480 0.921480
1.033312 1.033312 1.033312
0.010727 0.010727 0.010727
0.102375 0.102375 0.102375
0.149275 0.149275 0.149275
0.208336 0.208336 0.208336
0.433363 0.433363 0.433363
0.679148 0.679148 0.679148
0.859684 0.859684 0.859684
0.972077 0.972077 0.972077
0.021195 0.021195 0.021195
0.119051 0.119051 0.119051
0.170259 0.170259 0.170259
0.234637 0.234637 0.234637
0.311848 0.311848 0.311848
0.558809 0.558809 0.558809
0.780420 0.780420 0.780420
0.920901 0.920901 0.920901
0.031991 0.031991 0.031991
0.137243 0.137243 0.137243
0.193181 0.193181 0.193181
0.262845 0.262845 0.262845
0.343905 0.343905 0.343905
0.432044 0.432044 0.432044
0.677962 0.677962 0.677962
0.858956 0.858956 0.858956
0.043278 0.043278 0.043278
0.157113 0.157113 0.157113
0.218194 0.218194 0.218194
0.292720 0.292720 0.292720
0.376997 0.376997 0.376997
0.466697 0.466697 0.466697
0.557495 0.557495 0.557495
0.779475 0.779475 0.779475
0.055216 0.055216 0.055216
0.178822 0.178822 0.178822
0.245255 0.245255 0.245255
0.324019 0.324019 0.324019
0.410881 0.410881 0.410881
0.501511 0.501511 0.501511
0.591585 0.591585 0.591585
0.676774 0.676774 0.676774
0.009109 0.009109 0.009109
0.091146 0.091146 0.091146
0.230438 0.230438 0.230438
0.462649 0.462649 0.462649
0.704820 0.704820 0.704820
0.875285 0.875285 0.875285
0.983098 0.983098 0.983098
1.132709 1.132709 1.132709
-0.011493 -0.011493 -0.011493
0.079044 0.079044 0.079044
0.208656 0.208656 0.208656
0.433800 0.433800 0.433800
0.679540 0.679540 0.679540
0.859924 0.859924 0.859924
0.972243 0.972243 0.972243
1.114157 1.114157 1.114157
-0.042707 -0.042707 -0.042707
0.060363 0.060363 0.060363
0.188340 0.188340 0.188340
0.405221 0.405221 0.405221
0.653311 0.653311 0.653311
0.843658 0.843658 0.843658
0.961182 0.961182 0.961182
1.095606 1.095606 1.095606
-0.020427 -0.020427 -0.020427
0.073495 0.073495 0.073495
0.212919 0.212919 0.212919
0.286503 0.286503 0.286503
0.530504 0.530504 0.530504
0.759545 0.759545 0.759545
0.908178 0.908178 0.908178
1.014191 1.014191 1.014191
0.000854 0.000854 0.000854
0.087667 0.087667 0.087667
0.239580 0.239580 0.239580
0.317532 0.317532 0.317532
0.403917 0.403917 0.403917
0.652085 0.652085 0.652085
0.842888 0.842888 0.842888
0.960667 0.960667 0.960667
0.011157 0.011157 0.011157
0.103040 0.103040 0.103040
0.268106 0.268106 0.268106
0.349793 0.349793 0.349793
0.438259 0.438259 0.438259
0.529178 0.529178 0.529178
0.758541 0.758541 0.758541
0.907570 0.907570 0.907570
0.021636 0.021636 0.021636
0.119776 0.119776 0.119776
0.298256 0.298256 0.298256
0.383044 0.383044 0.383044
0.472959 0.472959 0.472959
0.563673 0.563673 0.563673
0.650859 0.650859 0.650859
0.842115 0.842115 0.842115
0.032450 0.032450 0.032450
0.138034 0.138034 0.138034
0.329786 0.329786 0.329786
0.417045 0.417045 0.417045
0.507776 0.507776 0.507776
0.597652 0.597652 0.597652
0.682346 0.682346 0.682346
0.757533 0.757533 0.757533
0.013699 0.013699 0.013699
0.097922 0.097922 0.097922
0.242573 0.242573 0.242573
0.461760 0.461760 0.461760
0.704059 0.704059 0.704059
0.874825 0.874825 0.874825
0.982767 0.982767 0.982767
1.132138 1.132138 1.132138
-0.001632 -0.001632 -0.001632
0.085376 0.085376 0.085376
0.220057 0.220057 0.220057
0.432917 0.432917 0.432917
0.678747 0.678747 0.678747
0.859438 0.859438 0.859438
0.971907 0.971907 0.971907
1.113587 1.113587 1.113587
-0.032846 -0.032846 -0.032846
0.066057 0.066057 0.066057
0.198955 0.198955 0.198955
0.404348 0.404348 0.404348
0.652491 0.652491 0.652491
0.843143 0.843143 0.843143
0.960838 0.960838 0.960838
1.095036 1.095036 1.095036
-0.064060 -0.064060 -0.064060
0.048603 0.048603 0.048603
0.166723 0.166723 0.166723
0.376193 0.376193 0.376193
0.625431 0.625431 0.625431
0.825859 0.825859 0.825859
0.949479 0.949479 0.949479
1.076485 1.076485 1.076485
-0.041781 -0.041781 -0.041781
0.060890 0.060890 0.060890
0.189320 0.189320 0.189320
0.410061 0.410061 0.410061
0.500677 0.500677 0.500677
0.736318 0.736318 0.736318
0.894199 0.894199 0.894199
0.997162 0.997162 0.997162
-0.019501 -0.019501 -0.019501
0.074062 0.074062 0.074062
0.213987 0.213987 0.213987
0.444485 0.444485 0.444485
0.535414 0.535414 0.535414
0.624171 0.624171 0.624171
0.825040 0.825040 0.825040
0.948950 0.948950 0.948950
0.001281 0.001281 0.001281
0.088281 0.088281 0.088281
0.240730 0.240730 0.240730
0.479224 0.479224 0.479224
0.569834 0.569834 0.569834
0.656618 0.656618 0.656618
0.735250 0.735250 0.735250
0.893558 0.893558 0.893558
0.011588 0.011588 0.011588
0.103708 0.103708 0.103708
0.269329 0.269329 0.269329
0.514037 0.514037 0.514037
0.603695 0.603695 0.603695
0.687874 0.687874 0.687874
0.762250 0.762250 0.762250
0.824219 0.824219 0.824219
0.018330 0.018330 0.018330
0.104955 0.104955 0.104955
0.255069 0.255069 0.255069
0.477155 0.477155 0.477155
0.703297 0.703297 0.703297
0.874365 0.874365 0.874365
0.982436 0.982436 0.982436
1.131568 1.131568 1.131568
0.003794 0.003794 0.003794
0.091937 0.091937 0.091937
0.231858 0.231858 0.231858
0.448223 0.448223 0.448223
0.677954 0.677954 0.677954
0.858951 0.858951 0.858951
0.971570 0.971570 0.971570
1.113017 1.113017 1.113017
-0.022985 -0.022985 -0.022985
0.071937 0.071937 0.071937
0.209988 0.209988 0.209988
0.419491 0.419491 0.419491
0.651671 0.651671 0.651671
0.842627 0.842627 0.842627
0.960493 0.960493 0.960493
1.094466 1.094466 1.094466
-0.054199 -0.054199 -0.054199
0.053942 0.053942 0.053942
0.176479 0.176479 0.176479
0.391099 0.391099 0.391099
0.624588 0.624588 0.624588
0.825312 0.825312 0.825312
0.949125 0.949125 0.949125
1.075915 1.075915 1.075915
-0.085413 -0.085413 -0.085413
0.037509 0.037509 0.037509
0.146863 0.146863 0.146863
0.344480 0.344480 0.344480
0.596846 0.596846 0.596846
0.806926 0.806926 0.806926
0.937385 0.937385 0.937385
1.057364 1.057364 1.057364
-0.063134 -0.063134 -0.063134
0.049099 0.049099 0.049099
0.167623 0.167623 0.167623
0.377587 0.377587 0.377587
0.630089 0.630089 0.630089
0.711742 0.711742 0.711742
0.879453 0.879453 0.879453
0.986126 0.986126 0.986126
-0.040855 -0.040855 -0.040855
0.061419 0.061419 0.061419
0.190303 0.190303 0.190303
0.411482 0.411482 0.411482
0.662339 0.662339 0.662339
0.740251 0.740251 0.740251
0.806054 0.806054 0.806054
0.936836 0.936836 0.936836
-0.018575 -0.018575 -0.018575
0.074631 0.074631 0.074631
0.215058 0.215058 0.215058
0.445924 0.445924 0.445924
0.693355 0.693355 0.693355
0.766905 0.766905 0.766905
0.828064 0.828064 0.828064
0.878777 0.878777 0.878777
0.023017 0.023017 0.023017
0.112258 0.112258 0.112258
0.267903 0.267903 0.267903
0.492567 0.492567 0.492567
0.716337 0.716337 0.716337
0.873904 0.873904 0.873904
0.982104 0.982104 0.982104
1.130998 1.130998 1.130998
0.008352 0.008352 0.008352
0.098743 0.098743 0.098743
0.244037 0.244037 0.244037
0.463585 0.463585 0.463585
0.691550 0.691550 0.691550
0.858464 0.858464 0.858464
0.971233 0.971233 0.971233
1.112447 1.112447 1.112447
-0.013125 -0.013125 -0.013125
0.078018 0.078018 0.078018
0.221437 0.221437 0.221437
0.434730 0.434730 0.434730
0.665750 0.665750 0.665750
0.842110 0.842110 0.842110
0.960149 0.960149 0.960149
1.093896 1.093896 1.093896
-0.044339 -0.044339 -0.044339
0.059437 0.059437 0.059437
0.186623 0.186623 0.186623
0.406139 0.406139 0.406139
0.639075 0.639075 0.639075
0.824763 0.824763 0.824763
0.948770 0.948770 0.948770
1.075345 1.075345 1.075345
-0.075553 -0.075553 -0.075553
0.042559 0.042559 0.042559
0.155825 0.155825 0.155825
0.359020 0.359020 0.359020
0.611666 0.611666 0.611666
0.806343 0.806343 0.806343
0.937018 0.937018 0.937018
1.056794 1.056794 1.056794
-0.106767 -0.106767 -0.106767
0.026939 0.026939 0.026939
0.128617 0.128617 0.128617
0.313712 0.313712 0.313712
0.564276 0.564276 0.564276
0.786770 0.786770 0.786770
0.924811 0.924811 0.924811
1.038242 1.038242 1.038242
-0.084487 -0.084487 -0.084487
0.037979 0.037979 0.037979
0.147690 0.147690 0.147690
0.345837 0.345837 0.345837
0.598244 0.598244 0.598244
0.810135 0.810135 0.810135
0.863855 0.863855 0.863855
0.974979 0.974979 0.974979
-0.062208 -0.062208 -0.062208
0.049595 0.049595 0.049595
0.168527 0.168527 0.168527
0.378982 0.378982 0.378982
0.631451 0.631451 0.631451
0.831860 0.831860 0.831860
0.881945 0.881945 0.881945
0.924238 0.924238 0.924238
0.027774 0.027774 0.027774
0.119846 0.119846 0.119846
0.281056 0.281056 0.281056
0.507976 0.507976 0.507976
0.729052 0.729052 0.729052
0.881768 0.881768 0.881768
0.981773 0.981773 0.981773
1.130428 1.130428 1.130428
0.012936 0.012936 0.012936
0.105807 0.105807 0.105807
0.256574 0.256574 0.256574
0.478984 0.478984 0.478984
0.704860 0.704860 0.704860
0.866780 0.866780 0.866780
0.970896 0.970896 0.970896
1.111877 1.111877 1.111877
-0.003264 -0.003264 -0.003264
0.084312 0.084312 0.084312
0.233284 0.233284 0.233284
0.450043 0.450043 0.450043
0.679581 0.679581 0.679581
0.850921 0.850921 0.850921
0.959804 0.959804 0.959804
1.093326 1.093326 1.093326
-0.034478 -0.034478 -0.034478
0.065102 0.065102 0.065102
0.197169 0.197169 0.197169
0.421295 0.421295 0.421295
0.653354 0.653354 0.653354
0.834112 0.834112 0.834112
0.948415 0.948415 0.948415
1.074775 1.074775 1.074775
-0.065692 -0.065692 -0.065692
0.047734 0.047734 0.047734
0.165145 0.165145 0.165145
0.373741 0.373741 0.373741
0.626318 0.626318 0.626318
0.816273 0.816273 0.816273
0.936650 0.936650 0.936650
1.056224 1.056224 1.056224
-0.096906 -0.096906 -0.096906
0.031764 0.031764 0.031764
0.136851 0.136851 0.136851
0.327789 0.327789 0.327789
0.579388 0.579388 0.579388
0.797322 0.797322 0.797322
0.924428 0.924428 0.924428
1.037672 1.037672 1.037672
-0.128120 -0.128120 -0.128120
0.016750 0.016750 0.016750
0.111844 0.111844 0.111844
0.284103 0.284103 0.284103
0.531228 0.531228 0.531228
0.762708 0.762708 0.762708
0.911670 0.911670 0.911670
1.019121 1.019121 1.019121
-0.105841 -0.105841 -0.105841
0.027388 0.027388 0.027388
0.129377 0.129377 0.129377
0.315024 0.315024 0.315024
0.565700 0.565700 0.565700
0.787776 0.787776 0.787776
0.926925 0.926925 0.926925
0.963635 0.963635 0.963635
0.032615 0.032615 0.032615
0.127733 0.127733 0.127733
0.294507 0.294507 0.294507
0.523360 0.523360 0.523360
0.741419 0.741419 0.741419
0.889408 0.889408 0.889408
0.987493 0.987493 0.987493
1.129858 1.129858 1.129858
0.017560 0.017560 0.017560
0.113144 0.113144 0.113144
0.269448 0.269448 0.269448
0.494396 0.494396 0.494396
0.717863 0.717863 0.717863
0.874850 0.874850 0.874850
0.976699 0.976699 0.976699
1.111307 1.111307 1.111307
0.003041 0.003041 0.003041
0.090835 0.090835 0.090835
0.245507 0.245507 0.245507
0.465411 0.465411 0.465411
0.693145 0.693145 0.693145
0.859464 0.859464 0.859464
0.965732 0.965732 0.965732
1.092756 1.092756 1.092756
-0.024618 -0.024618 -0.024618
0.070951 0.070951 0.070951
0.208132 0.208132 0.208132
0.436543 0.436543 0.436543
0.667404 0.667404 0.667404
0.843170 0.843170 0.843170
0.954510 0.954510 0.954510
1.074205 1.074205 1.074205
-0.055832 -0.055832 -0.055832
0.053048 0.053048 0.053048
0.174838 0.174838 0.174838
0.388622 0.388622 0.388622
0.640781 0.640781 0.640781
0.825888 0.825888 0.825888
0.942955 0.942955 0.942955
1.055654 1.055654 1.055654
-0.087046 -0.087046 -0.087046
0.036685 0.036685 0.036685
0.145413 0.145413 0.145413
0.342092 0.342092 0.342092
0.594378 0.594378 0.594378
0.807538 0.807538 0.807538
0.930986 0.930986 0.930986
1.037102 1.037102 1.037102
-0.118260 -0.118260 -0.118260
0.021417 0.021417 0.021417
0.119415 0.119415 0.119415
0.297618 0.297618 0.297618
0.546535 0.546535 0.546535
0.774030 0.774030 0.774030
0.918523 0.918523 0.918523
1.018551 1.018551 1.018551
-0.149474 -0.149474 -0.149474
0.006801 0.006801 0.006801
0.096401 0.096401 0.096401
0.255866 0.255866 0.255866
0.497917 0.497917 0.497917
0.736900 0.736900 0.736900
0.896216 0.896216 0.896216
1.000000 1.000000 1.000000
