filters/FFkontraszt.cube
#Created by: Affinity
TITLE "ilfordhp5"
#LUT size
LUT_3D_SIZE 4
#data domain
DOMAIN_MIN 0.0 0.0 0.0
DOMAIN_MAX 1.0 1.0 1.0
#LUT data points
0.000000 0.000000 0.000000
0.302590 0.302590 0.302590
0.829077 0.829077 0.829077
1.133849 1.133849 1.133849
0.024304 0.024304 0.024304
0.102781 0.102781 0.102781
0.588516 0.588516 0.588516
0.967325 0.967325 0.967325
0.050654 0.050654 0.050654
0.144169 0.144169 0.144169
0.299823 0.299823 0.299823
0.827183 0.827183 0.827183
0.081099 0.081099 0.081099
0.195006 0.195006 0.195006
0.375254 0.375254 0.375254
0.585494 0.585494 0.585494
0.010635 0.010635 0.010635
0.300738 0.300738 0.300738
0.827812 0.827812 0.827812
1.132518 1.132518 1.132518
-0.049825 -0.049825 -0.049825
0.243393 0.243393 0.243393
0.783488 0.783488 0.783488
1.089232 1.089232 1.089232
0.000996 0.000996 0.000996
0.312939 0.312939 0.312939
0.519691 0.519691 0.519691
0.939874 0.939874 0.939874
0.025344 0.025344 0.025344
0.389386 0.389386 0.389386
0.599669 0.599669 0.599669
0.781297 0.781297 0.781297
0.021448 0.021448 0.021448
0.333423 0.333423 0.333423
0.826541 0.826541 0.826541
1.131188 1.131188 1.131188
-0.026816 -0.026816 -0.026816
0.273126 0.273126 0.273126
0.782023 0.782023 0.782023
1.087902 1.087902 1.087902
-0.099649 -0.099649 -0.099649
0.186022 0.186022 0.186022
0.730718 0.730718 0.730718
1.044616 1.044616 1.044616
-0.047664 -0.047664 -0.047664
0.246107 0.246107 0.246107
0.791485 0.791485 0.791485
0.909908 0.909908 0.909908
0.032615 0.032615 0.032615
0.367295 0.367295 0.367295
0.847778 0.847778 0.847778
1.129858 1.129858 1.129858
-0.003808 -0.003808 -0.003808
0.304545 0.304545 0.304545
0.806470 0.806470 0.806470
1.086572 1.086572 1.086572
-0.076641 -0.076641 -0.076641
0.211223 0.211223 0.211223
0.758886 0.758886 0.758886
1.043286 1.043286 1.043286
-0.149474 -0.149474 -0.149474
0.138706 0.138706 0.138706
0.663553 0.663553 0.663553
1.000000 1.000000 1.000000
