filters/FFkontraszt.cube
#Created by: Affinity
TITLE "ilfordhp5"
#LUT size
LUT_3D_SIZE 64
#data domain
DOMAIN_MIN 0.0 0.0 0.0
DOMAIN_MAX 1.0 1.0 1.0
#LUT data points
0.000000 0.000000 0.000000
0.008310 0.008310 0.008310
0.016705 0.016705 0.016705
0.025270 0.025270 0.025270
0.034090 0.034090 0.034090
0.043249 0.043249 0.043249
0.052833 0.052833 0.052833
0.062927 0.062927 0.062927
0.073616 0.073616 0.073616
0.084984 0.084984 0.084984
0.097117 0.097117 0.097117
0.110099 0.110099 0.110099
0.124015 0.124015 0.124015
0.138951 0.138951 0.138951
0.154991 0.154991 0.154991
0.172220 0.172220 0.172220
0.190723 0.190723 0.190723
0.210585 0.210585 0.210585
0.231822 0.231822 0.231822
0.254319 0.254319 0.254319
0.277951 0.277951 0.277951
0.302590 0.302590 0.302590
0.328108 0.328108 0.328108
0.354378 0.354378 0.354378
0.381272 0.381272 0.381272
0.408664 0.408664 0.408664
0.436425 0.436425 0.436425
0.464428 0.464428 0.464428
0.492546 0.492546 0.492546
0.520652 0.520652 0.520652
0.548618 0.548618 0.548618
0.576316 0.576316 0.576316
0.603620 0.603620 0.603620
0.630402 0.630402 0.630402
0.656534 0.656534 0.656534
0.681889 0.681889 0.681889
0.706340 0.706340 0.706340
0.729759 0.729759 0.729759
0.752019 0.752019 0.752019
0.773027 0.773027 0.773027
0.792824 0.792824 0.792824
0.811483 0.811483 0.811483
0.829077 0.829077 0.829077
0.845679 0.845679 0.845679
0.861363 0.861363 0.861363
0.876201 0.876201 0.876201
0.890267 0.890267 0.890267
0.903633 0.903633 0.903633
0.916373 0.916373 0.916373
0.928560 0.928560 0.928560
0.940268 0.940268 0.940268
0.951568 0.951568 0.951568
0.962535 0.962535 0.962535
0.973242 0.973242 0.973242
0.983761 0.983761 0.983761
0.994165 0.994165 0.994165
1.007865 1.007865 1.007865
1.025863 1.025863 1.025863
1.043861 1.043861 1.043861
1.061858 1.061858 1.061858
1.079856 1.079856 1.079856
1.097853 1.097853 1.097853
1.115851 1.115851 1.115851
1.133849 1.133849 1.133849
0.001141 0.001141 0.001141
0.004128 0.004128 0.004128
0.012470 0.012470 0.012470
0.020938 0.020938 0.020938
0.029620 0.029620 0.029620
0.038598 0.038598 0.038598
0.047958 0.047958 0.047958
0.057785 0.057785 0.057785
0.068164 0.068164 0.068164
0.079180 0.079180 0.079180
0.090917 0.090917 0.090917
0.103462 0.103462 0.103462
0.116898 0.116898 0.116898
0.131311 0.131311 0.131311
0.146785 0.146785 0.146785
0.163406 0.163406 0.163406
0.181258 0.181258 0.181258
0.200427 0.200427 0.200427
0.220982 0.220982 0.220982
0.242862 0.242862 0.242862
0.265939 0.265939 0.265939
0.290088 0.290088 0.290088
0.315180 0.315180 0.315180
0.341088 0.341088 0.341088
0.367684 0.367684 0.367684
0.394842 0.394842 0.394842
0.422433 0.422433 0.422433
0.450330 0.450330 0.450330
0.478407 0.478407 0.478407
0.506535 0.506535 0.506535
0.534587 0.534587 0.534587
0.562436 0.562436 0.562436
0.589954 0.589954 0.589954
0.617014 0.617014 0.617014
0.643488 0.643488 0.643488
0.669250 0.669250 0.669250
0.694171 0.694171 0.694171
0.718125 0.718125 0.718125
0.740983 0.740983 0.740983
0.762624 0.762624 0.762624
0.783020 0.783020 0.783020
0.802242 0.802242 0.802242
0.820362 0.820362 0.820362
0.837454 0.837454 0.837454
0.853590 0.853590 0.853590
0.868844 0.868844 0.868844
0.883289 0.883289 0.883289
0.896998 0.896998 0.896998
0.910043 0.910043 0.910043
0.922499 0.922499 0.922499
0.934439 0.934439 0.934439
0.945935 0.945935 0.945935
0.957060 0.957060 0.957060
0.967888 0.967888 0.967888
0.978492 0.978492 0.978492
0.988945 0.988945 0.988945
0.999320 0.999320 0.999320
1.016817 1.016817 1.016817
1.034814 1.034814 1.034814
1.052812 1.052812 1.052812
1.070810 1.070810 1.070810
1.088807 1.088807 1.088807
1.106805 1.106805 1.106805
1.124802 1.124802 1.124802
0.002282 0.002282 0.002282
0.005271 0.005271 0.005271
0.008266 0.008266 0.008266
0.016661 0.016661 0.016661
0.025224 0.025224 0.025224
0.034043 0.034043 0.034043
0.043200 0.043200 0.043200
0.052782 0.052782 0.052782
0.062873 0.062873 0.062873
0.073558 0.073558 0.073558
0.084922 0.084922 0.084922
0.097051 0.097051 0.097051
0.110028 0.110028 0.110028
0.123939 0.123939 0.123939
0.138869 0.138869 0.138869
0.154903 0.154903 0.154903
0.172126 0.172126 0.172126
0.190622 0.190622 0.190622
0.210477 0.210477 0.210477
0.231706 0.231706 0.231706
0.254198 0.254198 0.254198
0.277824 0.277824 0.277824
0.302458 0.302458 0.302458
0.327972 0.327972 0.327972
0.354238 0.354238 0.354238
0.381129 0.381129 0.381129
0.408518 0.408518 0.408518
0.436278 0.436278 0.436278
0.464280 0.464280 0.464280
0.492398 0.492398 0.492398
0.520504 0.520504 0.520504
0.548471 0.548471 0.548471
0.576172 0.576172 0.576172
0.603478 0.603478 0.603478
0.630262 0.630262 0.630262
0.656398 0.656398 0.656398
0.681758 0.681758 0.681758
0.706214 0.706214 0.706214
0.729639 0.729639 0.729639
0.751905 0.751905 0.751905
0.772920 0.772920 0.772920
0.792723 0.792723 0.792723
0.811388 0.811388 0.811388
0.828987 0.828987 0.828987
0.845594 0.845594 0.845594
0.861283 0.861283 0.861283
0.876125 0.876125 0.876125
0.890195 0.890195 0.890195
0.903564 0.903564 0.903564
0.916308 0.916308 0.916308
0.928498 0.928498 0.928498
0.940207 0.940207 0.940207
0.951510 0.951510 0.951510
0.962478 0.962478 0.962478
0.973186 0.973186 0.973186
0.983706 0.983706 0.983706
0.994111 0.994111 0.994111
1.007771 1.007771 1.007771
1.025768 1.025768 1.025768
1.043766 1.043766 1.043766
1.061764 1.061764 1.061764
1.079761 1.079761 1.079761
1.097759 1.097759 1.097759
1.115756 1.115756 1.115756
0.003424 0.003424 0.003424
0.006415 0.006415 0.006415
0.009414 0.009414 0.009414
0.012425 0.012425 0.012425
0.020893 0.020893 0.020893
0.029573 0.029573 0.029573
0.038549 0.038549 0.038549
0.047907 0.047907 0.047907
0.057732 0.057732 0.057732
0.068108 0.068108 0.068108
0.079120 0.079120 0.079120
0.090854 0.090854 0.090854
0.103394 0.103394 0.103394
0.116825 0.116825 0.116825
0.131232 0.131232 0.131232
0.146701 0.146701 0.146701
0.163315 0.163315 0.163315
0.181161 0.181161 0.181161
0.200323 0.200323 0.200323
0.220870 0.220870 0.220870
0.242743 0.242743 0.242743
0.265815 0.265815 0.265815
0.289958 0.289958 0.289958
0.315046 0.315046 0.315046
0.340950 0.340950 0.340950
0.367543 0.367543 0.367543
0.394698 0.394698 0.394698
0.422287 0.422287 0.422287
0.450183 0.450183 0.450183
0.478259 0.478259 0.478259
0.506387 0.506387 0.506387
0.534440 0.534440 0.534440
0.562290 0.562290 0.562290
0.589810 0.589810 0.589810
0.616873 0.616873 0.616873
0.643351 0.643351 0.643351
0.669116 0.669116 0.669116
0.694042 0.694042 0.694042
0.718002 0.718002 0.718002
0.740866 0.740866 0.740866
0.762513 0.762513 0.762513
0.782916 0.782916 0.782916
0.802144 0.802144 0.802144
0.820270 0.820270 0.820270
0.837367 0.837367 0.837367
0.853508 0.853508 0.853508
0.868766 0.868766 0.868766
0.883215 0.883215 0.883215
0.896927 0.896927 0.896927
0.909976 0.909976 0.909976
0.922435 0.922435 0.922435
0.934377 0.934377 0.934377
0.945875 0.945875 0.945875
0.957002 0.957002 0.957002
0.967832 0.967832 0.967832
0.978437 0.978437 0.978437
0.988891 0.988891 0.988891
0.999266 0.999266 0.999266
1.016722 1.016722 1.016722
1.034720 1.034720 1.034720
1.052717 1.052717 1.052717
1.070715 1.070715 1.070715
1.088713 1.088713 1.088713
1.106710 1.106710 1.106710
0.004567 0.004567 0.004567
0.007560 0.007560 0.007560
0.010563 0.010563 0.010563
0.013581 0.013581 0.013581
0.016616 0.016616 0.016616
0.025179 0.025179 0.025179
0.033995 0.033995 0.033995
0.043151 0.043151 0.043151
0.052730 0.052730 0.052730
0.062818 0.062818 0.062818
0.073500 0.073500 0.073500
0.084861 0.084861 0.084861
0.096985 0.096985 0.096985
0.109957 0.109957 0.109957
0.123863 0.123863 0.123863
0.138788 0.138788 0.138788
0.154816 0.154816 0.154816
0.172032 0.172032 0.172032
0.190522 0.190522 0.190522
0.210369 0.210369 0.210369
0.231591 0.231591 0.231591
0.254077 0.254077 0.254077
0.277697 0.277697 0.277697
0.302326 0.302326 0.302326
0.327835 0.327835 0.327835
0.354098 0.354098 0.354098
0.380986 0.380986 0.380986
0.408373 0.408373 0.408373
0.436131 0.436131 0.436131
0.464133 0.464133 0.464133
0.492250 0.492250 0.492250
0.520357 0.520357 0.520357
0.548325 0.548325 0.548325
0.576027 0.576027 0.576027
0.603335 0.603335 0.603335
0.630123 0.630123 0.630123
0.656263 0.656263 0.656263
0.681627 0.681627 0.681627
0.706088 0.706088 0.706088
0.729518 0.729518 0.729518
0.751791 0.751791 0.751791
0.772813 0.772813 0.772813
0.792622 0.792622 0.792622
0.811292 0.811292 0.811292
0.828897 0.828897 0.828897
0.845509 0.845509 0.845509
0.861202 0.861202 0.861202
0.876049 0.876049 0.876049
0.890122 0.890122 0.890122
0.903496 0.903496 0.903496
0.916242 0.916242 0.916242
0.928435 0.928435 0.928435
0.940147 0.940147 0.940147
0.951451 0.951451 0.951451
0.962421 0.962421 0.962421
0.973130 0.973130 0.973130
0.983651 0.983651 0.983651
0.994056 0.994056 0.994056
1.007676 1.007676 1.007676
1.025674 1.025674 1.025674
1.043671 1.043671 1.043671
1.061669 1.061669 1.061669
1.079666 1.079666 1.079666
1.097664 1.097664 1.097664
0.005710 0.005710 0.005710
0.008707 0.008707 0.008707
0.011715 0.011715 0.011715
0.014739 0.014739 0.014739
0.017782 0.017782 0.017782
0.020848 0.020848 0.020848
0.029527 0.029527 0.029527
0.038501 0.038501 0.038501
0.047857 0.047857 0.047857
0.057679 0.057679 0.057679
0.068052 0.068052 0.068052
0.079060 0.079060 0.079060
0.090790 0.090790 0.090790
0.103325 0.103325 0.103325
0.116752 0.116752 0.116752
0.131154 0.131154 0.131154
0.146617 0.146617 0.146617
0.163225 0.163225 0.163225
0.181064 0.181064 0.181064
0.200218 0.200218 0.200218
0.220758 0.220758 0.220758
0.242625 0.242625 0.242625
0.265691 0.265691 0.265691
0.289829 0.289829 0.289829
0.314912 0.314912 0.314912
0.340811 0.340811 0.340811
0.367401 0.367401 0.367401
0.394553 0.394553 0.394553
0.422141 0.422141 0.422141
0.450036 0.450036 0.450036
0.478111 0.478111 0.478111
0.506239 0.506239 0.506239
0.534292 0.534292 0.534292
0.562144 0.562144 0.562144
0.589666 0.589666 0.589666
0.616732 0.616732 0.616732
0.643213 0.643213 0.643213
0.668983 0.668983 0.668983
0.693914 0.693914 0.693914
0.717878 0.717878 0.717878
0.740749 0.740749 0.740749
0.762403 0.762403 0.762403
0.782812 0.782812 0.782812
0.802046 0.802046 0.802046
0.820177 0.820177 0.820177
0.837279 0.837279 0.837279
0.853425 0.853425 0.853425
0.868688 0.868688 0.868688
0.883141 0.883141 0.883141
0.896857 0.896857 0.896857
0.909909 0.909909 0.909909
0.922371 0.922371 0.922371
0.934316 0.934316 0.934316
0.945816 0.945816 0.945816
0.956945 0.956945 0.956945
0.967776 0.967776 0.967776
0.978382 0.978382 0.978382
0.988836 0.988836 0.988836
0.999211 0.999211 0.999211
1.016627 1.016627 1.016627
1.034625 1.034625 1.034625
1.052623 1.052623 1.052623
1.070620 1.070620 1.070620
1.088618 1.088618 1.088618
0.006854 0.006854 0.006854
0.009855 0.009855 0.009855
0.012869 0.012869 0.012869
0.015899 0.015899 0.015899
0.018951 0.018951 0.018951
0.022028 0.022028 0.022028
0.025133 0.025133 0.025133
0.033948 0.033948 0.033948
0.043102 0.043102 0.043102
0.052678 0.052678 0.052678
0.062764 0.062764 0.062764
0.073442 0.073442 0.073442
0.084799 0.084799 0.084799
0.096919 0.096919 0.096919
0.109887 0.109887 0.109887
0.123788 0.123788 0.123788
0.138707 0.138707 0.138707
0.154729 0.154729 0.154729
0.171938 0.171938 0.171938
0.190421 0.190421 0.190421
0.210261 0.210261 0.210261
0.231476 0.231476 0.231476
0.253955 0.253955 0.253955
0.277570 0.277570 0.277570
0.302194 0.302194 0.302194
0.327699 0.327699 0.327699
0.353958 0.353958 0.353958
0.380844 0.380844 0.380844
0.408228 0.408228 0.408228
0.435984 0.435984 0.435984
0.463985 0.463985 0.463985
0.492102 0.492102 0.492102
0.520209 0.520209 0.520209
0.548178 0.548178 0.548178
0.575882 0.575882 0.575882
0.603193 0.603193 0.603193
0.629984 0.629984 0.629984
0.656127 0.656127 0.656127
0.681496 0.681496 0.681496
0.705962 0.705962 0.705962
0.729398 0.729398 0.729398
0.751678 0.751678 0.751678
0.772705 0.772705 0.772705
0.792521 0.792521 0.792521
0.811197 0.811197 0.811197
0.828807 0.828807 0.828807
0.845425 0.845425 0.845425
0.861122 0.861122 0.861122
0.875973 0.875973 0.875973
0.890050 0.890050 0.890050
0.903427 0.903427 0.903427
0.916177 0.916177 0.916177
0.928372 0.928372 0.928372
0.940086 0.940086 0.940086
0.951393 0.951393 0.951393
0.962364 0.962364 0.962364
0.973074 0.973074 0.973074
0.983596 0.983596 0.983596
0.994002 0.994002 0.994002
1.007581 1.007581 1.007581
1.025579 1.025579 1.025579
1.043577 1.043577 1.043577
1.061574 1.061574 1.061574
1.079572 1.079572 1.079572
0.008000 0.008000 0.008000
0.011005 0.011005 0.011005
0.014025 0.014025 0.014025
0.017063 0.017063 0.017063
0.020124 0.020124 0.020124
0.023211 0.023211 0.023211
0.026329 0.026329 0.026329
0.029480 0.029480 0.029480
0.038453 0.038453 0.038453
0.047807 0.047807 0.047807
0.057626 0.057626 0.057626
0.067995 0.067995 0.067995
0.079001 0.079001 0.079001
0.090726 0.090726 0.090726
0.103257 0.103257 0.103257
0.116679 0.116679 0.116679
0.131075 0.131075 0.131075
0.146532 0.146532 0.146532
0.163134 0.163134 0.163134
0.180967 0.180967 0.180967
0.200114 0.200114 0.200114
0.220647 0.220647 0.220647
0.242507 0.242507 0.242507
0.265567 0.265567 0.265567
0.289699 0.289699 0.289699
0.314777 0.314777 0.314777
0.340673 0.340673 0.340673
0.367260 0.367260 0.367260
0.394409 0.394409 0.394409
0.421995 0.421995 0.421995
0.449888 0.449888 0.449888
0.477963 0.477963 0.477963
0.506091 0.506091 0.506091
0.534145 0.534145 0.534145
0.561998 0.561998 0.561998
0.589523 0.589523 0.589523
0.616591 0.616591 0.616591
0.643076 0.643076 0.643076
0.668849 0.668849 0.668849
0.693785 0.693785 0.693785
0.717755 0.717755 0.717755
0.740632 0.740632 0.740632
0.762292 0.762292 0.762292
0.782708 0.782708 0.782708
0.801948 0.801948 0.801948
0.820085 0.820085 0.820085
0.837192 0.837192 0.837192
0.853342 0.853342 0.853342
0.868610 0.868610 0.868610
0.883067 0.883067 0.883067
0.896787 0.896787 0.896787
0.909842 0.909842 0.909842
0.922307 0.922307 0.922307
0.934254 0.934254 0.934254
0.945756 0.945756 0.945756
0.956887 0.956887 0.956887
0.967719 0.967719 0.967719
0.978326 0.978326 0.978326
0.988781 0.988781 0.988781
0.999157 0.999157 0.999157
1.016533 1.016533 1.016533
1.034530 1.034530 1.034530
1.052528 1.052528 1.052528
1.070526 1.070526 1.070526
0.009147 0.009147 0.009147
0.012158 0.012158 0.012158
0.015184 0.015184 0.015184
0.018230 0.018230 0.018230
0.021301 0.021301 0.021301
0.024399 0.024399 0.024399
0.027529 0.027529 0.027529
0.030695 0.030695 0.030695
0.033901 0.033901 0.033901
0.043052 0.043052 0.043052
0.052627 0.052627 0.052627
0.062709 0.062709 0.062709
0.073384 0.073384 0.073384
0.084737 0.084737 0.084737
0.096853 0.096853 0.096853
0.109816 0.109816 0.109816
0.123712 0.123712 0.123712
0.138625 0.138625 0.138625
0.154641 0.154641 0.154641
0.171845 0.171845 0.171845
0.190320 0.190320 0.190320
0.210153 0.210153 0.210153
0.231361 0.231361 0.231361
0.253834 0.253834 0.253834
0.277443 0.277443 0.277443
0.302062 0.302062 0.302062
0.327563 0.327563 0.327563
0.353818 0.353818 0.353818
0.380701 0.380701 0.380701
0.408083 0.408083 0.408083
0.435838 0.435838 0.435838
0.463837 0.463837 0.463837
0.491954 0.491954 0.491954
0.520062 0.520062 0.520062
0.548032 0.548032 0.548032
0.575737 0.575737 0.575737
0.603051 0.603051 0.603051
0.629844 0.629844 0.629844
0.655992 0.655992 0.655992
0.681364 0.681364 0.681364
0.705836 0.705836 0.705836
0.729278 0.729278 0.729278
0.751563 0.751563 0.751563
0.772598 0.772598 0.772598
0.792419 0.792419 0.792419
0.811102 0.811102 0.811102
0.828717 0.828717 0.828717
0.845340 0.845340 0.845340
0.861042 0.861042 0.861042
0.875897 0.875897 0.875897
0.889978 0.889978 0.889978
0.903359 0.903359 0.903359
0.916111 0.916111 0.916111
0.928309 0.928309 0.928309
0.940026 0.940026 0.940026
0.951334 0.951334 0.951334
0.962308 0.962308 0.962308
0.973019 0.973019 0.973019
0.983541 0.983541 0.983541
0.993947 0.993947 0.993947
1.007487 1.007487 1.007487
1.025484 1.025484 1.025484
1.043482 1.043482 1.043482
1.061479 1.061479 1.061479
0.010296 0.010296 0.010296
0.013312 0.013312 0.013312
0.016346 0.016346 0.016346
0.019401 0.019401 0.019401
0.022482 0.022482 0.022482
0.025592 0.025592 0.025592
0.028735 0.028735 0.028735
0.031916 0.031916 0.031916
0.035138 0.035138 0.035138
0.038405 0.038405 0.038405
0.047756 0.047756 0.047756
0.057573 0.057573 0.057573
0.067939 0.067939 0.067939
0.078941 0.078941 0.078941
0.090662 0.090662 0.090662
0.103189 0.103189 0.103189
0.116606 0.116606 0.116606
0.130997 0.130997 0.130997
0.146448 0.146448 0.146448
0.163044 0.163044 0.163044
0.180869 0.180869 0.180869
0.200010 0.200010 0.200010
0.220535 0.220535 0.220535
0.242388 0.242388 0.242388
0.265442 0.265442 0.265442
0.289570 0.289570 0.289570
0.314643 0.314643 0.314643
0.340535 0.340535 0.340535
0.367118 0.367118 0.367118
0.394265 0.394265 0.394265
0.421849 0.421849 0.421849
0.449741 0.449741 0.449741
0.477815 0.477815 0.477815
0.505943 0.505943 0.505943
0.533998 0.533998 0.533998
0.561853 0.561853 0.561853
0.589379 0.589379 0.589379
0.616450 0.616450 0.616450
0.642938 0.642938 0.642938
0.668716 0.668716 0.668716
0.693656 0.693656 0.693656
0.717632 0.717632 0.717632
0.740515 0.740515 0.740515
0.762181 0.762181 0.762181
0.782604 0.782604 0.782604
0.801849 0.801849 0.801849
0.819992 0.819992 0.819992
0.837104 0.837104 0.837104
0.853260 0.853260 0.853260
0.868532 0.868532 0.868532
0.882993 0.882993 0.882993
0.896716 0.896716 0.896716
0.909775 0.909775 0.909775
0.922243 0.922243 0.922243
0.934192 0.934192 0.934192
0.945697 0.945697 0.945697
0.956829 0.956829 0.956829
0.967663 0.967663 0.967663
0.978271 0.978271 0.978271
0.988726 0.988726 0.988726
0.999102 0.999102 0.999102
1.016438 1.016438 1.016438
1.034436 1.034436 1.034436
1.052433 1.052433 1.052433
0.011448 0.011448 0.011448
0.014470 0.014470 0.014470
0.017511 0.017511 0.017511
0.020575 0.020575 0.020575
0.023667 0.023667 0.023667
0.026789 0.026789 0.026789
0.029946 0.029946 0.029946
0.033142 0.033142 0.033142
0.036381 0.036381 0.036381
0.039667 0.039667 0.039667
0.043003 0.043003 0.043003
0.052575 0.052575 0.052575
0.062655 0.062655 0.062655
0.073326 0.073326 0.073326
0.084676 0.084676 0.084676
0.096787 0.096787 0.096787
0.109745 0.109745 0.109745
0.123636 0.123636 0.123636
0.138544 0.138544 0.138544
0.154554 0.154554 0.154554
0.171751 0.171751 0.171751
0.190220 0.190220 0.190220
0.210045 0.210045 0.210045
0.231246 0.231246 0.231246
0.253713 0.253713 0.253713
0.277316 0.277316 0.277316
0.301930 0.301930 0.301930
0.327427 0.327427 0.327427
0.353678 0.353678 0.353678
0.380558 0.380558 0.380558
0.407938 0.407938 0.407938
0.435691 0.435691 0.435691
0.463690 0.463690 0.463690
0.491806 0.491806 0.491806
0.519914 0.519914 0.519914
0.547885 0.547885 0.547885
0.575592 0.575592 0.575592
0.602908 0.602908 0.602908
0.629705 0.629705 0.629705
0.655856 0.655856 0.655856
0.681233 0.681233 0.681233
0.705710 0.705710 0.705710
0.729157 0.729157 0.729157
0.751450 0.751450 0.751450
0.772490 0.772490 0.772490
0.792318 0.792318 0.792318
0.811006 0.811006 0.811006
0.828627 0.828627 0.828627
0.845255 0.845255 0.845255
0.860961 0.860961 0.860961
0.875821 0.875821 0.875821
0.889906 0.889906 0.889906
0.903290 0.903290 0.903290
0.916046 0.916046 0.916046
0.928246 0.928246 0.928246
0.939965 0.939965 0.939965
0.951276 0.951276 0.951276
0.962250 0.962250 0.962250
0.972963 0.972963 0.972963
0.983486 0.983486 0.983486
0.993892 0.993892 0.993892
1.007392 1.007392 1.007392
1.025390 1.025390 1.025390
1.043387 1.043387 1.043387
0.012601 0.012601 0.012601
0.015630 0.015630 0.015630
0.018679 0.018679 0.018679
0.021754 0.021754 0.021754
0.024856 0.024856 0.024856
0.027991 0.027991 0.027991
0.031163 0.031163 0.031163
0.034375 0.034375 0.034375
0.037631 0.037631 0.037631
0.040936 0.040936 0.040936
0.044293 0.044293 0.044293
0.047706 0.047706 0.047706
0.057520 0.057520 0.057520
0.067883 0.067883 0.067883
0.078881 0.078881 0.078881
0.090599 0.090599 0.090599
0.103121 0.103121 0.103121
0.116532 0.116532 0.116532
0.130918 0.130918 0.130918
0.146364 0.146364 0.146364
0.162953 0.162953 0.162953
0.180772 0.180772 0.180772
0.199905 0.199905 0.199905
0.220424 0.220424 0.220424
0.242270 0.242270 0.242270
0.265318 0.265318 0.265318
0.289440 0.289440 0.289440
0.314509 0.314509 0.314509
0.340397 0.340397 0.340397
0.366977 0.366977 0.366977
0.394121 0.394121 0.394121
0.421703 0.421703 0.421703
0.449594 0.449594 0.449594
0.477667 0.477667 0.477667
0.505795 0.505795 0.505795
0.533851 0.533851 0.533851
0.561707 0.561707 0.561707
0.589235 0.589235 0.589235
0.616309 0.616309 0.616309
0.642800 0.642800 0.642800
0.668582 0.668582 0.668582
0.693528 0.693528 0.693528
0.717508 0.717508 0.717508
0.740397 0.740397 0.740397
0.762071 0.762071 0.762071
0.782499 0.782499 0.782499
0.801751 0.801751 0.801751
0.819899 0.819899 0.819899
0.837017 0.837017 0.837017
0.853177 0.853177 0.853177
0.868454 0.868454 0.868454
0.882919 0.882919 0.882919
0.896646 0.896646 0.896646
0.909708 0.909708 0.909708
0.922179 0.922179 0.922179
0.934131 0.934131 0.934131
0.945637 0.945637 0.945637
0.956772 0.956772 0.956772
0.967607 0.967607 0.967607
0.978216 0.978216 0.978216
0.988672 0.988672 0.988672
0.999048 0.999048 0.999048
1.016343 1.016343 1.016343
1.034341 1.034341 1.034341
0.013756 0.013756 0.013756
0.016793 0.016793 0.016793
0.019851 0.019851 0.019851
0.022936 0.022936 0.022936
0.026051 0.026051 0.026051
0.029199 0.029199 0.029199
0.032386 0.032386 0.032386
0.035614 0.035614 0.035614
0.038889 0.038889 0.038889
0.042213 0.042213 0.042213
0.045591 0.045591 0.045591
0.049026 0.049026 0.049026
0.052524 0.052524 0.052524
0.062600 0.062600 0.062600
0.073269 0.073269 0.073269
0.084614 0.084614 0.084614
0.096721 0.096721 0.096721
0.109675 0.109675 0.109675
0.123561 0.123561 0.123561
0.138463 0.138463 0.138463
0.154467 0.154467 0.154467
0.171657 0.171657 0.171657
0.190119 0.190119 0.190119
0.209937 0.209937 0.209937
0.231131 0.231131 0.231131
0.253591 0.253591 0.253591
0.277189 0.277189 0.277189
0.301798 0.301798 0.301798
0.327290 0.327290 0.327290
0.353538 0.353538 0.353538
0.380415 0.380415 0.380415
0.407793 0.407793 0.407793
0.435544 0.435544 0.435544
0.463542 0.463542 0.463542
0.491658 0.491658 0.491658
0.519766 0.519766 0.519766
0.547739 0.547739 0.547739
0.575447 0.575447 0.575447
0.602766 0.602766 0.602766
0.629566 0.629566 0.629566
0.655720 0.655720 0.655720
0.681102 0.681102 0.681102
0.705583 0.705583 0.705583
0.729037 0.729037 0.729037
0.751335 0.751335 0.751335
0.772383 0.772383 0.772383
0.792217 0.792217 0.792217
0.810911 0.810911 0.810911
0.828537 0.828537 0.828537
0.845170 0.845170 0.845170
0.860881 0.860881 0.860881
0.875745 0.875745 0.875745
0.889834 0.889834 0.889834
0.903221 0.903221 0.903221
0.915980 0.915980 0.915980
0.928184 0.928184 0.928184
0.939905 0.939905 0.939905
0.951217 0.951217 0.951217
0.962194 0.962194 0.962194
0.972907 0.972907 0.972907
0.983431 0.983431 0.983431
0.993838 0.993838 0.993838
1.007297 1.007297 1.007297
1.025295 1.025295 1.025295
0.014915 0.014915 0.014915
0.017959 0.017959 0.017959
0.021027 0.021027 0.021027
0.024123 0.024123 0.024123
0.027250 0.027250 0.027250
0.030413 0.030413 0.030413
0.033615 0.033615 0.033615
0.036860 0.036860 0.036860
0.040153 0.040153 0.040153
0.043497 0.043497 0.043497
0.046897 0.046897 0.046897
0.050356 0.050356 0.050356
0.053878 0.053878 0.053878
0.057467 0.057467 0.057467
0.067827 0.067827 0.067827
0.078821 0.078821 0.078821
0.090535 0.090535 0.090535
0.103053 0.103053 0.103053
0.116459 0.116459 0.116459
0.130840 0.130840 0.130840
0.146280 0.146280 0.146280
0.162863 0.162863 0.162863
0.180675 0.180675 0.180675
0.199801 0.199801 0.199801
0.220312 0.220312 0.220312
0.242152 0.242152 0.242152
0.265194 0.265194 0.265194
0.289311 0.289311 0.289311
0.314375 0.314375 0.314375
0.340259 0.340259 0.340259
0.366835 0.366835 0.366835
0.393977 0.393977 0.393977
0.421557 0.421557 0.421557
0.449446 0.449446 0.449446
0.477519 0.477519 0.477519
0.505648 0.505648 0.505648
0.533704 0.533704 0.533704
0.561561 0.561561 0.561561
0.589091 0.589091 0.589091
0.616168 0.616168 0.616168
0.642663 0.642663 0.642663
0.668449 0.668449 0.668449
0.693399 0.693399 0.693399
0.717385 0.717385 0.717385
0.740280 0.740280 0.740280
0.761960 0.761960 0.761960
0.782395 0.782395 0.782395
0.801653 0.801653 0.801653
0.819806 0.819806 0.819806
0.836929 0.836929 0.836929
0.853095 0.853095 0.853095
