filters/infrared.cube
#Created by: Affinity
TITLE "infra"
#LUT size
LUT_3D_SIZE 8
#data domain
DOMAIN_MIN 0.0 0.0 0.0
DOMAIN_MAX 1.0 1.0 1.0
#LUT data points
0.017136 0.017136 0.017136
0.022202 0.022202 0.022202
0.028796 0.028796 0.028796
0.038435 0.038435 0.038435
0.052897 0.052897 0.052897
0.074274 0.074274 0.074274
0.105012 0.105012 0.105012
0.146864 0.146864 0.146864
0.285376 0.285376 0.285376
0.104209 0.104209 0.104209
0.145814 0.145814 0.145814
0.198217 0.198217 0.198217
0.260524 0.260524 0.260524
0.331519 0.331519 0.331519
0.409704 0.409704 0.409704
0.493322 0.493322 0.493322
0.932763 0.932763 0.932763
0.760264 0.760264 0.760264
0.491418 0.491418 0.491418
0.576542 0.576542 0.576542
0.658318 0.658318 0.658318
0.734450 0.734450 0.734450
0.802698 0.802698 0.802698
0.860869 0.860869 0.860869
1.285714 1.285714 1.285714
1.131408 1.131408 1.131408
0.991904 0.991904 0.991904
0.906027 0.906027 0.906027
0.940458 0.940458 0.940458
0.965974 0.965974 0.965974
0.985643 0.985643 0.985643
1.006320 1.006320 1.006320
1.714286 1.714286 1.714286
1.559980 1.559980 1.559980
1.405674 1.405674 1.405674
1.251368 1.251368 1.251368
1.097062 1.097062 1.097062
1.142943 1.142943 1.142943
1.188824 1.188824 1.188824
1.234705 1.234705 1.234705
2.142857 2.142857 2.142857
1.988551 1.988551 1.988551
1.834245 1.834245 1.834245
1.679940 1.679940 1.679940
1.525634 1.525634 1.525634
1.371328 1.371328 1.371328
1.417209 1.417209 1.417209
1.463090 1.463090 1.463090
2.571429 2.571429 2.571429
2.417123 2.417123 2.417123
2.262817 2.262817 2.262817
2.108511 2.108511 2.108511
1.954205 1.954205 1.954205
1.799899 1.799899 1.799899
1.645593 1.645593 1.645593
1.691474 1.691474 1.691474
3.000000 3.000000 3.000000
2.845694 2.845694 2.845694
2.691388 2.691388 2.691388
2.537082 2.537082 2.537082
2.382776 2.382776 2.382776
2.228471 2.228471 2.228471
2.074165 2.074165 2.074165
1.919859 1.919859 1.919859
-0.075727 -0.075727 -0.075727
0.044039 0.044039 0.044039
0.061241 0.061241 0.061241
0.086383 0.086383 0.086383
0.121909 0.121909 0.121909
0.168556 0.168556 0.168556
0.225634 0.225634 0.225634
0.292095 0.292095 0.292095
-0.056080 -0.056080 -0.056080
0.039800 0.039800 0.039800
0.054936 0.054936 0.054936
0.077247 0.077247 0.077247
0.109205 0.109205 0.109205
0.152317 0.152317 0.152317
0.206126 0.206126 0.206126
0.269691 0.269691 0.269691
0.206421 0.206421 0.206421
0.534166 0.534166 0.534166
0.268181 0.268181 0.268181
0.340073 0.340073 0.340073
0.418969 0.418969 0.418969
0.503079 0.503079 0.503079
0.587902 0.587902 0.587902
0.669045 0.669045 0.669045
0.885698 0.885698 0.885698
1.000000 1.000000 1.000000
0.924520 0.924520 0.924520
0.742645 0.742645 0.742645
0.809857 0.809857 0.809857
0.866747 0.866747 0.866747
0.911343 0.911343 0.911343
0.944379 0.944379 0.944379
1.229635 1.229635 1.229635
1.428572 1.428572 1.428572
1.274266 1.274266 1.274266
1.119960 1.119960 1.119960
0.987639 0.987639 0.987639
1.011535 1.011535 1.011535
1.057416 1.057416 1.057416
1.103297 1.103297 1.103297
1.658206 1.658206 1.658206
1.857143 1.857143 1.857143
1.702837 1.702837 1.702837
1.548531 1.548531 1.548531
1.394225 1.394225 1.394225
1.239919 1.239919 1.239919
1.285800 1.285800 1.285800
1.331681 1.331681 1.331681
2.086777 2.086777 2.086777
2.285714 2.285714 2.285714
2.131408 2.131408 2.131408
1.977103 1.977103 1.977103
1.822797 1.822797 1.822797
1.668491 1.668491 1.668491
1.514185 1.514185 1.514185
1.560066 1.560066 1.560066
2.515349 2.515349 2.515349
2.714286 2.714286 2.714286
2.559980 2.559980 2.559980
2.405674 2.405674 2.405674
2.251368 2.251368 2.251368
2.097062 2.097062 2.097062
1.942756 1.942756 1.942756
1.788450 1.788450 1.788450
-0.151454 -0.151454 -0.151454
0.027183 0.027183 0.027183
0.140933 0.140933 0.140933
0.192240 0.192240 0.192240
0.253561 0.253561 0.253561
0.323710 0.323710 0.323710
0.401220 0.401220 0.401220
0.484358 0.484358 0.484358
-0.131806 -0.131806 -0.131806
0.024979 0.024979 0.024979
0.126660 0.126660 0.126660
0.174535 0.174535 0.174535
0.232737 0.232737 0.232737
0.300184 0.300184 0.300184
0.375495 0.375495 0.375495
0.457020 0.457020 0.457020
-0.112159 -0.112159 -0.112159
0.027961 0.027961 0.027961
0.113544 0.113544 0.113544
0.157908 0.157908 0.157908
0.212880 0.212880 0.212880
0.277480 0.277480 0.277480
0.350420 0.350420 0.350420
0.430135 0.430135 0.430135
0.142014 0.142014 0.142014
0.430548 0.430548 0.430548
0.777343 0.777343 0.777343
0.512832 0.512832 0.512832
0.597352 0.597352 0.597352
0.677932 0.677932 0.677932
0.752305 0.752305 0.752305
0.818241 0.818241 0.818241
0.820203 0.820203 0.820203
0.979048 0.979048 0.979048
1.142857 1.142857 1.142857
0.996033 0.996033 0.996033
0.915625 0.915625 0.915625
0.947538 0.947538 0.947538
0.971313 0.971313 0.971313
0.989980 0.989980 0.989980
1.173555 1.173555 1.173555
1.372492 1.372492 1.372492
1.571429 1.571429 1.571429
1.417123 1.417123 1.417123
1.262817 1.262817 1.262817
1.108511 1.108511 1.108511
1.154392 1.154392 1.154392
1.200273 1.200273 1.200273
1.602126 1.602126 1.602126
1.801063 1.801063 1.801063
2.000000 2.000000 2.000000
1.845694 1.845694 1.845694
1.691388 1.691388 1.691388
1.537082 1.537082 1.537082
1.382776 1.382776 1.382776
1.428657 1.428657 1.428657
2.030698 2.030698 2.030698
2.229635 2.229635 2.229635
2.428571 2.428571 2.428571
2.274265 2.274265 2.274265
2.119960 2.119960 2.119960
1.965654 1.965654 1.965654
1.811348 1.811348 1.811348
1.657042 1.657042 1.657042
-0.227181 -0.227181 -0.227181
0.017783 0.017783 0.017783
0.080208 0.080208 0.080208
0.356731 0.356731 0.356731
0.436925 0.436925 0.436925
0.521766 0.521766 0.521766
0.605982 0.605982 0.605982
0.686019 0.686019 0.686019
-0.207533 -0.207533 -0.207533
-0.008597 -0.008597 -0.008597
0.071749 0.071749 0.071749
0.332179 0.332179 0.332179
0.410420 0.410420 0.410420
0.494077 0.494077 0.494077
0.579142 0.579142 0.579142
0.660778 0.660778 0.660778
-0.187886 -0.187886 -0.187886
0.018290 0.018290 0.018290
0.064235 0.064235 0.064235
0.308376 0.308376 0.308376
0.384481 0.384481 0.384481
0.466597 0.466597 0.466597
0.551944 0.551944 0.551944
0.634940 0.634940 0.634940
-0.168239 -0.168239 -0.168239
0.020425 0.020425 0.020425
0.074403 0.074403 0.074403
0.285376 0.285376 0.285376
0.359170 0.359170 0.359170
0.439544 0.439544 0.439544
0.524465 0.524465 0.524465
0.608584 0.608584 0.608584
0.093804 0.093804 0.093804
0.333938 0.333938 0.333938
0.688838 0.688838 0.688838
0.932763 0.932763 0.932763
0.760264 0.760264 0.760264
0.825103 0.825103 0.825103
0.879086 0.879086 0.879086
0.920553 0.920553 0.920553
0.738754 0.738754 0.738754
0.952020 0.952020 0.952020
1.086778 1.086778 1.086778
1.285714 1.285714 1.285714
1.131408 1.131408 1.131408
0.991904 0.991904 0.991904
1.022984 1.022984 1.022984
1.068864 1.068864 1.068864
1.117476 1.117476 1.117476
1.316412 1.316412 1.316412
1.515349 1.515349 1.515349
1.714286 1.714286 1.714286
1.559980 1.559980 1.559980
1.405674 1.405674 1.405674
1.251368 1.251368 1.251368
1.297249 1.297249 1.297249
1.546047 1.546047 1.546047
1.744984 1.744984 1.744984
1.943920 1.943920 1.943920
2.142857 2.142857 2.142857
1.988551 1.988551 1.988551
1.834245 1.834245 1.834245
1.679940 1.679940 1.679940
1.525634 1.525634 1.525634
-0.302907 -0.302907 -0.302907
-0.069512 -0.069512 -0.069512
0.045989 0.045989 0.045989
0.239648 0.239648 0.239648
0.641563 0.641563 0.641563
0.719065 0.719065 0.719065
0.789150 0.789150 0.789150
0.849613 0.849613 0.849613
-0.283260 -0.283260 -0.283260
-0.084323 -0.084323 -0.084323
0.041511 0.041511 0.041511
0.219460 0.219460 0.219460
0.615331 0.615331 0.615331
0.694750 0.694750 0.694750
0.767472 0.767472 0.767472
0.831278 0.831278 0.831278
-0.263613 -0.263613 -0.263613
-0.064676 -0.064676 -0.064676
0.037583 0.037583 0.037583
0.200265 0.200265 0.200265
0.588636 0.588636 0.588636
0.669736 0.669736 0.669736
0.744865 0.744865 0.744865
0.811789 0.811789 0.811789
-0.243966 -0.243966 -0.243966
-0.045029 -0.045029 -0.045029
0.042909 0.042909 0.042909
0.182101 0.182101 0.182101
0.561556 0.561556 0.561556
0.644100 0.644100 0.644100
0.721402 0.721402 0.721402
0.791216 0.791216 0.791216
-0.224318 -0.224318 -0.224318
-0.025382 -0.025382 -0.025382
0.049244 0.049244 0.049244
0.206421 0.206421 0.206421
0.534166 0.534166 0.534166
0.617917 0.617917 0.617917
0.697159 0.697159 0.697159
0.769634 0.769634 0.769634
0.061561 0.061561 0.061561
0.247974 0.247974 0.247974
0.590590 0.590590 0.590590
0.885698 0.885698 0.885698
1.000000 1.000000 1.000000
0.924521 0.924521 0.924521
0.954112 0.954112 0.954112
0.976335 0.976335 0.976335
0.645331 0.645331 0.645331
0.913604 0.913604 0.913604
1.030698 1.030698 1.030698
1.229635 1.229635 1.229635
1.428571 1.428571 1.428571
1.274266 1.274266 1.274266
1.119960 1.119960 1.119960
1.165841 1.165841 1.165841
1.061396 1.061396 1.061396
1.260333 1.260333 1.260333
1.459269 1.459269 1.459269
1.658206 1.658206 1.658206
1.857143 1.857143 1.857143
1.702837 1.702837 1.702837
1.548531 1.548531 1.548531
1.394225 1.394225 1.394225
-0.378634 -0.378634 -0.378634
-0.145239 -0.145239 -0.145239
0.028188 0.028188 0.028188
0.147261 0.147261 0.147261
0.503416 0.503416 0.503416
0.872439 0.872439 0.872439
0.915605 0.915605 0.915605
0.947524 0.947524 0.947524
-0.358987 -0.358987 -0.358987
-0.160050 -0.160050 -0.160050
0.025873 0.025873 0.025873
0.132509 0.132509 0.132509
0.475812 0.475812 0.475812
0.855779 0.855779 0.855779
0.903046 0.903046 0.903046
0.938260 0.938260 0.938260
-0.339340 -0.339340 -0.339340
-0.140403 -0.140403 -0.140403
0.023808 0.023808 0.023808
0.118905 0.118905 0.118905
0.448607 0.448607 0.448607
0.837869 0.837869 0.837869
0.889204 0.889204 0.889204
0.928043 0.928043 0.928043
-0.319692 -0.319692 -0.319692
-0.120756 -0.120756 -0.120756
0.026599 0.026599 0.026599
0.106469 0.106469 0.106469
0.421876 0.421876 0.421876
0.818778 0.818778 0.818778
0.873998 0.873998 0.873998
0.916769 0.916769 0.916769
-0.300045 -0.300045 -0.300045
-0.101108 -0.101108 -0.101108
0.029860 0.029860 0.029860
0.123220 0.123220 0.123220
0.395683 0.395683 0.395683
0.798578 0.798578 0.798578
0.857464 0.857464 0.857464
0.904329 0.904329 0.904329
-0.280398 -0.280398 -0.280398
-0.081461 -0.081461 -0.081461
0.033716 0.033716 0.033716
0.142014 0.142014 0.142014
0.430549 0.430549 0.430549
0.777343 0.777343 0.777343
0.839673 0.839673 0.839673
0.890617 0.890617 0.890617
0.041257 0.041257 0.041257
0.175352 0.175352 0.175352
0.486788 0.486788 0.486788
0.820203 0.820203 0.820203
0.979048 0.979048 0.979048
1.142857 1.142857 1.142857
0.996033 0.996033 0.996033
1.034432 1.034432 1.034432
0.544028 0.544028 0.544028
0.858279 0.858279 0.858279
0.990991 0.990991 0.990991
1.173555 1.173555 1.173555
1.372492 1.372492 1.372492
1.571429 1.571429 1.571429
1.417123 1.417123 1.417123
1.262817 1.262817 1.262817
-0.454361 -0.454361 -0.454361
-0.220966 -0.220966 -0.220966
0.018436 0.018436 0.018436
0.084061 0.084061 0.084061
0.367243 0.367243 0.367243
0.774883 0.774883 0.774883
0.979908 0.979908 0.979908
0.997213 0.997213 0.997213
-0.434714 -0.434714 -0.434714
-0.235777 -0.235777 -0.235777
-0.002382 -0.002382 -0.002382
0.075178 0.075178 0.075178
0.342392 0.342392 0.342392
0.752581 0.752581 0.752581
0.973626 0.973626 0.973626
0.991896 0.991896 0.991896
-0.415067 -0.415067 -0.415067
-0.216130 -0.216130 -0.216130
-0.017193 -0.017193 -0.017193
0.067278 0.067278 0.067278
0.318268 0.318268 0.318268
0.729398 0.729398 0.729398
0.966850 0.966850 0.966850
0.986347 0.986347 0.986347
-0.395419 -0.395419 -0.395419
-0.196483 -0.196483 -0.196483
0.017391 0.017391 0.017391
0.060273 0.060273 0.060273
0.294925 0.294925 0.294925
0.705410 0.705410 0.705410
0.959477 0.959477 0.959477
0.980499 0.980499 0.980499
-0.375772 -0.375772 -0.375772
-0.176835 -0.176835 -0.176835
0.019473 0.019473 0.019473
0.069755 0.069755 0.069755
0.272416 0.272416 0.272416
0.680691 0.680691 0.680691
0.951408 0.951408 0.951408
0.974261 0.974261 0.974261
-0.356125 -0.356125 -0.356125
-0.157188 -0.157188 -0.157188
0.021704 0.021704 0.021704
0.080862 0.080862 0.080862
0.302459 0.302459 0.302459
0.655316 0.655316 0.655316
0.942538 0.942538 0.942538
0.967537 0.967537 0.967537
-0.336478 -0.336478 -0.336478
-0.137541 -0.137541 -0.137541
0.024190 0.024190 0.024190
0.093804 0.093804 0.093804
0.333938 0.333938 0.333938
0.688838 0.688838 0.688838
0.932763 0.932763 0.932763
0.960227 0.960227 0.960227
0.028852 0.028852 0.028852
0.118117 0.118117 0.118117
0.385700 0.385700 0.385700
0.738753 0.738753 0.738753
0.952020 0.952020 0.952020
1.086777 1.086777 1.086777
1.285714 1.285714 1.285714
1.131408 1.131408 1.131408
-0.530088 -0.530088 -0.530088
-0.296693 -0.296693 -0.296693
-0.063298 -0.063298 -0.063298
0.048049 0.048049 0.048049
0.248404 0.248404 0.248404
0.652413 0.652413 0.652413
0.941482 0.941482 0.941482
1.103677 1.103677 1.103677
-0.510441 -0.510441 -0.510441
-0.311504 -0.311504 -0.311504
-0.078109 -0.078109 -0.078109
0.043319 0.043319 0.043319
0.227812 0.227812 0.227812
0.626398 0.626398 0.626398
0.931598 0.931598 0.931598
1.088866 1.088866 1.088866
-0.490793 -0.490793 -0.490793
-0.291857 -0.291857 -0.291857
-0.092920 -0.092920 -0.092920
0.039168 0.039168 0.039168
0.208196 0.208196 0.208196
0.599888 0.599888 0.599888
0.920692 0.920692 0.920692
1.074055 1.074055 1.074055
-0.471146 -0.471146 -0.471146
-0.272209 -0.272209 -0.272209
-0.073273 -0.073273 -0.073273
0.035530 0.035530 0.035530
0.189594 0.189594 0.189594
0.572960 0.572960 0.572960
0.908657 0.908657 0.908657
1.059244 1.059244 1.059244
-0.451499 -0.451499 -0.451499
-0.252562 -0.252562 -0.252562
-0.053625 -0.053625 -0.053625
0.040464 0.040464 0.040464
0.172044 0.172044 0.172044
0.545691 0.545691 0.545691
0.895386 0.895386 0.895386
1.044433 1.044433 1.044433
-0.431852 -0.431852 -0.431852
-0.232915 -0.232915 -0.232915
-0.033978 -0.033978 -0.033978
0.046338 0.046338 0.046338
0.195554 0.195554 0.195554
0.518158 0.518158 0.518158
0.880776 0.880776 0.880776
1.029622 1.029622 1.029622
-0.412204 -0.412204 -0.412204
-0.213268 -0.213268 -0.213268
-0.014331 -0.014331 -0.014331
0.053313 0.053313 0.053313
0.220894 0.220894 0.220894
0.554628 0.554628 0.554628
0.864810 0.864810 0.864810
1.014811 1.014811 1.014811
-0.392557 -0.392557 -0.392557
-0.193620 -0.193620 -0.193620
0.017689 0.017689 0.017689
0.061561 0.061561 0.061561
0.247974 0.247974 0.247974
0.590590 0.590590 0.590590
0.885698 0.885698 0.885698
1.000000 1.000000 1.000000
