filters/infrared.cube
#Created by: Affinity
TITLE "infra"
#LUT size
LUT_3D_SIZE 4
#data domain
DOMAIN_MIN 0.0 0.0 0.0
DOMAIN_MAX 1.0 1.0 1.0
#LUT data points
0.017136 0.017136 0.017136
0.031588 0.031588 0.031588
0.066237 0.066237 0.066237
0.146864 0.146864 0.146864
1.000000 1.000000 1.000000
0.657730 0.657730 0.657730
0.822869 0.822869 0.822869
0.930608 0.930608 0.930608
2.000000 2.000000 2.000000
1.639953 1.639953 1.639953
1.279906 1.279906 1.279906
1.386961 1.386961 1.386961
3.000000 3.000000 3.000000
2.639953 2.639953 2.639953
2.279906 2.279906 2.279906
1.919859 1.919859 1.919859
-0.176696 -0.176696 -0.176696
0.200564 0.200564 0.200564
0.360006 0.360006 0.360006
0.553750 0.553750 0.553750
-0.130852 -0.130852 -0.130852
0.159802 0.159802 0.159802
0.303661 0.303661 0.303661
0.489391 0.489391 0.489391
0.940759 0.940759 0.940759
1.333333 1.333333 1.333333
0.990499 0.990499 0.990499
1.080342 1.080342 1.080342
1.869148 1.869148 1.869148
2.333333 2.333333 2.333333
1.973286 1.973286 1.973286
1.613239 1.613239 1.613239
-0.353392 -0.353392 -0.353392
0.055929 0.055929 0.055929
0.807832 0.807832 0.807832
0.922366 0.922366 0.922366
-0.307548 -0.307548 -0.307548
0.043725 0.043725 0.043725
0.757816 0.757816 0.757816
0.892771 0.892771 0.892771
-0.261705 -0.261705 -0.261705
0.060760 0.060760 0.060760
0.702915 0.702915 0.702915
0.856004 0.856004 0.856004
0.811250 0.811250 0.811250
1.202481 1.202481 1.202481
1.666667 1.666667 1.666667
1.306620 1.306620 1.306620
-0.530088 -0.530088 -0.530088
0.018655 0.018655 0.018655
0.511166 0.511166 0.511166
1.103677 1.103677 1.103677
-0.484244 -0.484244 -0.484244
-0.020059 -0.020059 -0.020059
0.447162 0.447162 0.447162
1.069118 1.069118 1.069118
-0.438401 -0.438401 -0.438401
0.019877 0.019877 0.019877
0.385706 0.385706 0.385706
1.034559 1.034559 1.034559
-0.392557 -0.392557 -0.392557
0.025622 0.025622 0.025622
0.467831 0.467831 0.467831
1.000000 1.000000 1.000000
