filters/infrared.cube
#Created by: Affinity
TITLE "infra"
#LUT size
LUT_3D_SIZE 64
#data domain
DOMAIN_MIN 0.0 0.0 0.0
DOMAIN_MAX 1.0 1.0 1.0
#LUT data points
0.017136 0.017136 0.017136
0.017666 0.017666 0.017666
0.018200 0.018200 0.018200
0.018740 0.018740 0.018740
0.019287 0.019287 0.019287
0.019844 0.019844 0.019844
0.020412 0.020412 0.020412
0.020993 0.020993 0.020993
0.021589 0.021589 0.021589
0.022202 0.022202 0.022202
0.022833 0.022833 0.022833
0.023485 0.023485 0.023485
0.024160 0.024160 0.024160
0.024859 0.024859 0.024859
0.025585 0.025585 0.025585
0.026339 0.026339 0.026339
0.027124 0.027124 0.027124
0.027942 0.027942 0.027942
0.028796 0.028796 0.028796
0.029686 0.029686 0.029686
0.030616 0.030616 0.030616
0.031588 0.031588 0.031588
0.032605 0.032605 0.032605
0.033668 0.033668 0.033668
0.034780 0.034780 0.034780
0.035943 0.035943 0.035943
0.037161 0.037161 0.037161
0.038435 0.038435 0.038435
0.039768 0.039768 0.039768
0.041164 0.041164 0.041164
0.042623 0.042623 0.042623
0.044151 0.044151 0.044151
0.045748 0.045748 0.045748
0.047418 0.047418 0.047418
0.049165 0.049165 0.049165
0.050990 0.050990 0.050990
0.052897 0.052897 0.052897
0.054889 0.054889 0.054889
0.056970 0.056970 0.056970
0.059141 0.059141 0.059141
0.061407 0.061407 0.061407
0.063771 0.063771 0.063771
0.066237 0.066237 0.066237
0.068807 0.068807 0.068807
0.071485 0.071485 0.071485
0.074274 0.074274 0.074274
0.077179 0.077179 0.077179
0.080203 0.080203 0.080203
0.083350 0.083350 0.083350
0.086623 0.086623 0.086623
0.090026 0.090026 0.090026
0.093563 0.093563 0.093563
0.097239 0.097239 0.097239
0.101055 0.101055 0.101055
0.105012 0.105012 0.105012
0.109110 0.109110 0.109110
0.113347 0.113347 0.113347
0.117723 0.117723 0.117723
0.122238 0.122238 0.122238
0.126891 0.126891 0.126891
0.131681 0.131681 0.131681
0.136607 0.136607 0.136607
0.141668 0.141668 0.141668
0.146864 0.146864 0.146864
0.022415 0.022415 0.022415
0.020399 0.020399 0.020399
0.020980 0.020980 0.020980
0.021576 0.021576 0.021576
0.022188 0.022188 0.022188
0.022819 0.022819 0.022819
0.023471 0.023471 0.023471
0.024145 0.024145 0.024145
0.024843 0.024843 0.024843
0.025568 0.025568 0.025568
0.026322 0.026322 0.026322
0.027106 0.027106 0.027106
0.027924 0.027924 0.027924
0.028776 0.028776 0.028776
0.029666 0.029666 0.029666
0.030595 0.030595 0.030595
0.031566 0.031566 0.031566
0.032582 0.032582 0.032582
0.033644 0.033644 0.033644
0.034754 0.034754 0.034754
0.035917 0.035917 0.035917
0.037133 0.037133 0.037133
0.038406 0.038406 0.038406
0.039738 0.039738 0.039738
0.041132 0.041132 0.041132
0.042590 0.042590 0.042590
0.044116 0.044116 0.044116
0.045712 0.045712 0.045712
0.047380 0.047380 0.047380
0.049125 0.049125 0.049125
0.050948 0.050948 0.050948
0.052854 0.052854 0.052854
0.054844 0.054844 0.054844
0.056922 0.056922 0.056922
0.059092 0.059092 0.059092
0.061356 0.061356 0.061356
0.063718 0.063718 0.063718
0.066181 0.066181 0.066181
0.068748 0.068748 0.068748
0.071424 0.071424 0.071424
0.074211 0.074211 0.074211
0.077113 0.077113 0.077113
0.080135 0.080135 0.080135
0.083278 0.083278 0.083278
0.086548 0.086548 0.086548
0.089949 0.089949 0.089949
0.093483 0.093483 0.093483
0.097155 0.097155 0.097155
0.100969 0.100969 0.100969
0.104923 0.104923 0.104923
0.109017 0.109017 0.109017
0.113251 0.113251 0.113251
0.117625 0.117625 0.117625
0.122136 0.122136 0.122136
0.126786 0.126786 0.126786
0.131573 0.131573 0.131573
0.136496 0.136496 0.136496
0.141554 0.141554 0.141554
0.146747 0.146747 0.146747
0.152074 0.152074 0.152074
0.157532 0.157532 0.157532
0.163123 0.163123 0.163123
0.168843 0.168843 0.168843
0.174693 0.174693 0.174693
0.029399 0.029399 0.029399
0.026586 0.026586 0.026586
0.024129 0.024129 0.024129
0.024827 0.024827 0.024827
0.025552 0.025552 0.025552
0.026305 0.026305 0.026305
0.027089 0.027089 0.027089
0.027905 0.027905 0.027905
0.028757 0.028757 0.028757
0.029646 0.029646 0.029646
0.030574 0.030574 0.030574
0.031544 0.031544 0.031544
0.032559 0.032559 0.032559
0.033619 0.033619 0.033619
0.034729 0.034729 0.034729
0.035890 0.035890 0.035890
0.037105 0.037105 0.037105
0.038377 0.038377 0.038377
0.039708 0.039708 0.039708
0.041100 0.041100 0.041100
0.042557 0.042557 0.042557
0.044081 0.044081 0.044081
0.045675 0.045675 0.045675
0.047343 0.047343 0.047343
0.049085 0.049085 0.049085
0.050907 0.050907 0.050907
0.052811 0.052811 0.052811
0.054799 0.054799 0.054799
0.056875 0.056875 0.056875
0.059043 0.059043 0.059043
0.061304 0.061304 0.061304
0.063664 0.063664 0.063664
0.066125 0.066125 0.066125
0.068690 0.068690 0.068690
0.071363 0.071363 0.071363
0.074148 0.074148 0.074148
0.077048 0.077048 0.077048
0.080066 0.080066 0.080066
0.083207 0.083207 0.083207
0.086474 0.086474 0.086474
0.089872 0.089872 0.089872
0.093403 0.093403 0.093403
0.097072 0.097072 0.097072
0.100882 0.100882 0.100882
0.104833 0.104833 0.104833
0.108925 0.108925 0.108925
0.113156 0.113156 0.113156
0.117526 0.117526 0.117526
0.122035 0.122035 0.122035
0.126681 0.126681 0.126681
0.131465 0.131465 0.131465
0.136385 0.136385 0.136385
0.141440 0.141440 0.141440
0.146630 0.146630 0.146630
0.151954 0.151954 0.151954
0.157410 0.157410 0.157410
0.162997 0.162997 0.162997
0.168715 0.168715 0.168715
0.174561 0.174561 0.174561
0.180536 0.180536 0.180536
0.186637 0.186637 0.186637
0.192863 0.192863 0.192863
0.199214 0.199214 0.199214
0.205686 0.205686 0.205686
0.039800 0.039800 0.039800
0.035541 0.035541 0.035541
0.031885 0.031885 0.031885
0.028738 0.028738 0.028738
0.029626 0.029626 0.029626
0.030553 0.030553 0.030553
0.031522 0.031522 0.031522
0.032536 0.032536 0.032536
0.033595 0.033595 0.033595
0.034704 0.034704 0.034704
0.035864 0.035864 0.035864
0.037078 0.037078 0.037078
0.038348 0.038348 0.038348
0.039678 0.039678 0.039678
0.041069 0.041069 0.041069
0.042524 0.042524 0.042524
0.044047 0.044047 0.044047
0.045639 0.045639 0.045639
0.047305 0.047305 0.047305
0.049046 0.049046 0.049046
0.050866 0.050866 0.050866
0.052767 0.052767 0.052767
0.054754 0.054754 0.054754
0.056828 0.056828 0.056828
0.058993 0.058993 0.058993
0.061253 0.061253 0.061253
0.063611 0.063611 0.063611
0.066069 0.066069 0.066069
0.068632 0.068632 0.068632
0.071302 0.071302 0.071302
0.074085 0.074085 0.074085
0.076982 0.076982 0.076982
0.079998 0.079998 0.079998
0.083136 0.083136 0.083136
0.086400 0.086400 0.086400
0.089795 0.089795 0.089795
0.093323 0.093323 0.093323
0.096989 0.096989 0.096989
0.100796 0.100796 0.100796
0.104744 0.104744 0.104744
0.108832 0.108832 0.108832
0.113060 0.113060 0.113060
0.117427 0.117427 0.117427
0.121933 0.121933 0.121933
0.126576 0.126576 0.126576
0.131357 0.131357 0.131357
0.136274 0.136274 0.136274
0.141326 0.141326 0.141326
0.146513 0.146513 0.146513
0.151834 0.151834 0.151834
0.157287 0.157287 0.157287
0.162871 0.162871 0.162871
0.168586 0.168586 0.168586
0.174430 0.174430 0.174430
0.180402 0.180402 0.180402
0.186500 0.186500 0.186500
0.192724 0.192724 0.192724
0.199071 0.199071 0.199071
0.205541 0.205541 0.205541
0.212132 0.212132 0.212132
0.218842 0.218842 0.218842
0.225669 0.225669 0.225669
0.232613 0.232613 0.232613
0.239672 0.239672 0.239672
0.055636 0.055636 0.055636
0.049166 0.049166 0.049166
0.043589 0.043589 0.043589
0.038795 0.038795 0.038795
0.034679 0.034679 0.034679
0.035838 0.035838 0.035838
0.037050 0.037050 0.037050
0.038319 0.038319 0.038319
0.039647 0.039647 0.039647
0.041037 0.041037 0.041037
0.042491 0.042491 0.042491
0.044012 0.044012 0.044012
0.045603 0.045603 0.045603
0.047267 0.047267 0.047267
0.049006 0.049006 0.049006
0.050824 0.050824 0.050824
0.052724 0.052724 0.052724
0.054709 0.054709 0.054709
0.056781 0.056781 0.056781
0.058944 0.058944 0.058944
0.061202 0.061202 0.061202
0.063557 0.063557 0.063557
0.066013 0.066013 0.066013
0.068574 0.068574 0.068574
0.071242 0.071242 0.071242
0.074022 0.074022 0.074022
0.076916 0.076916 0.076916
0.079929 0.079929 0.079929
0.083065 0.083065 0.083065
0.086326 0.086326 0.086326
0.089718 0.089718 0.089718
0.093243 0.093243 0.093243
0.096906 0.096906 0.096906
0.100710 0.100710 0.100710
0.104655 0.104655 0.104655
0.108740 0.108740 0.108740
0.112965 0.112965 0.112965
0.117329 0.117329 0.117329
0.121831 0.121831 0.121831
0.126472 0.126472 0.126472
0.131249 0.131249 0.131249
0.136163 0.136163 0.136163
0.141213 0.141213 0.141213
0.146397 0.146397 0.146397
0.151714 0.151714 0.151714
0.157164 0.157164 0.157164
0.162746 0.162746 0.162746
0.168458 0.168458 0.168458
0.174299 0.174299 0.174299
0.180268 0.180268 0.180268
0.186363 0.186363 0.186363
0.192584 0.192584 0.192584
0.198929 0.198929 0.198929
0.205396 0.205396 0.205396
0.211984 0.211984 0.211984
0.218691 0.218691 0.218691
0.225516 0.225516 0.225516
0.232458 0.232458 0.232458
0.239514 0.239514 0.239514
0.246682 0.246682 0.246682
0.253962 0.253962 0.253962
0.261351 0.261351 0.261351
0.268847 0.268847 0.268847
0.276449 0.276449 0.276449
0.079298 0.079298 0.079298
0.069709 0.069709 0.069709
0.061357 0.061357 0.061357
0.054112 0.054112 0.054112
0.047851 0.047851 0.047851
0.042458 0.042458 0.042458
0.043977 0.043977 0.043977
0.045567 0.045567 0.045567
0.047229 0.047229 0.047229
0.048967 0.048967 0.048967
0.050783 0.050783 0.050783
0.052681 0.052681 0.052681
0.054663 0.054663 0.054663
0.056734 0.056734 0.056734
0.058895 0.058895 0.058895
0.061151 0.061151 0.061151
0.063504 0.063504 0.063504
0.065957 0.065957 0.065957
0.068516 0.068516 0.068516
0.071181 0.071181 0.071181
0.073959 0.073959 0.073959
0.076850 0.076850 0.076850
0.079861 0.079861 0.079861
0.082994 0.082994 0.082994
0.086252 0.086252 0.086252
0.089641 0.089641 0.089641
0.093163 0.093163 0.093163
0.096823 0.096823 0.096823
0.100624 0.100624 0.100624
0.104565 0.104565 0.104565
0.108647 0.108647 0.108647
0.112869 0.112869 0.112869
0.117230 0.117230 0.117230
0.121730 0.121730 0.121730
0.126367 0.126367 0.126367
0.131142 0.131142 0.131142
0.136052 0.136052 0.136052
0.141099 0.141099 0.141099
0.146280 0.146280 0.146280
0.151594 0.151594 0.151594
0.157042 0.157042 0.157042
0.162620 0.162620 0.162620
0.168329 0.168329 0.168329
0.174167 0.174167 0.174167
0.180134 0.180134 0.180134
0.186226 0.186226 0.186226
0.192444 0.192444 0.192444
0.198786 0.198786 0.198786
0.205251 0.205251 0.205251
0.211836 0.211836 0.211836
0.218541 0.218541 0.218541
0.225363 0.225363 0.225363
0.232302 0.232302 0.232302
0.239356 0.239356 0.239356
0.246522 0.246522 0.246522
0.253799 0.253799 0.253799
0.261185 0.261185 0.261185
0.268679 0.268679 0.268679
0.276278 0.276278 0.276278
0.283981 0.283981 0.283981
0.291786 0.291786 0.291786
0.299690 0.299690 0.299690
0.307691 0.307691 0.307691
0.315788 0.315788 0.315788
0.113544 0.113544 0.113544
0.099828 0.099828 0.099828
0.087695 0.087695 0.087695
0.077049 0.077049 0.077049
0.067748 0.067748 0.067748
0.059653 0.059653 0.059653
0.052638 0.052638 0.052638
0.054618 0.054618 0.054618
0.056687 0.056687 0.056687
0.058846 0.058846 0.058846
0.061099 0.061099 0.061099
0.063450 0.063450 0.063450
0.065902 0.065902 0.065902
0.068458 0.068458 0.068458
0.071121 0.071121 0.071121
0.073896 0.073896 0.073896
0.076785 0.076785 0.076785
0.079793 0.079793 0.079793
0.082923 0.082923 0.082923
0.086178 0.086178 0.086178
0.089564 0.089564 0.089564
0.093083 0.093083 0.093083
0.096740 0.096740 0.096740
0.100538 0.100538 0.100538
0.104476 0.104476 0.104476
0.108555 0.108555 0.108555
0.112774 0.112774 0.112774
0.117132 0.117132 0.117132
0.121628 0.121628 0.121628
0.126262 0.126262 0.126262
0.131034 0.131034 0.131034
0.135942 0.135942 0.135942
0.140985 0.140985 0.140985
0.146163 0.146163 0.146163
0.151475 0.151475 0.151475
0.156919 0.156919 0.156919
0.162495 0.162495 0.162495
0.168201 0.168201 0.168201
0.174036 0.174036 0.174036
0.180000 0.180000 0.180000
0.186089 0.186089 0.186089
0.192305 0.192305 0.192305
0.198644 0.198644 0.198644
0.205106 0.205106 0.205106
0.211688 0.211688 0.211688
0.218390 0.218390 0.218390
0.225210 0.225210 0.225210
0.232147 0.232147 0.232147
0.239197 0.239197 0.239197
0.246361 0.246361 0.246361
0.253636 0.253636 0.253636
0.261020 0.261020 0.261020
0.268511 0.268511 0.268511
0.276108 0.276108 0.276108
0.283809 0.283809 0.283809
0.291611 0.291611 0.291611
0.299513 0.299513 0.299513
0.307512 0.307512 0.307512
0.315607 0.315607 0.315607
0.323795 0.323795 0.323795
0.332074 0.332074 0.332074
0.340442 0.340442 0.340442
0.348897 0.348897 0.348897
0.357436 0.357436 0.357436
0.159802 0.159802 0.159802
0.141789 0.141789 0.141789
0.125295 0.125295 0.125295
0.110354 0.110354 0.110354
0.096991 0.096991 0.096991
0.085202 0.085202 0.085202
0.074868 0.074868 0.074868
0.065846 0.065846 0.065846
0.068400 0.068400 0.068400
0.071061 0.071061 0.071061
0.073833 0.073833 0.073833
0.076719 0.076719 0.076719
0.079724 0.079724 0.079724
0.082852 0.082852 0.082852
0.086105 0.086105 0.086105
0.089487 0.089487 0.089487
0.093004 0.093004 0.093004
0.096657 0.096657 0.096657
0.100452 0.100452 0.100452
0.104387 0.104387 0.104387
0.108463 0.108463 0.108463
0.112678 0.112678 0.112678
0.117033 0.117033 0.117033
0.121527 0.121527 0.121527
0.126158 0.126158 0.126158
0.130926 0.130926 0.130926
0.135831 0.135831 0.135831
0.140872 0.140872 0.140872
0.146047 0.146047 0.146047
0.151355 0.151355 0.151355
0.156797 0.156797 0.156797
0.162369 0.162369 0.162369
0.168073 0.168073 0.168073
0.173905 0.173905 0.173905
0.179866 0.179866 0.179866
0.185953 0.185953 0.185953
0.192165 0.192165 0.192165
0.198502 0.198502 0.198502
0.204961 0.204961 0.204961
0.211541 0.211541 0.211541
0.218240 0.218240 0.218240
0.225057 0.225057 0.225057
0.231991 0.231991 0.231991
0.239039 0.239039 0.239039
0.246201 0.246201 0.246201
0.253473 0.253473 0.253473
0.260855 0.260855 0.260855
0.268344 0.268344 0.268344
0.275938 0.275938 0.275938
0.283637 0.283637 0.283637
0.291437 0.291437 0.291437
0.299336 0.299336 0.299336
0.307333 0.307333 0.307333
0.315426 0.315426 0.315426
0.323612 0.323612 0.323612
0.331889 0.331889 0.331889
0.340255 0.340255 0.340255
0.348708 0.348708 0.348708
0.357245 0.357245 0.357245
0.365864 0.365864 0.365864
0.374563 0.374563 0.374563
0.383339 0.383339 0.383339
0.392190 0.392190 0.392190
0.401113 0.401113 0.401113
0.217452 0.217452 0.217452
0.195445 0.195445 0.195445
0.174832 0.174832 0.174832
0.155663 0.155663 0.155663
0.137985 0.137985 0.137985
0.121834 0.121834 0.121834
0.107242 0.107242 0.107242
0.094234 0.094234 0.094234
0.082781 0.082781 0.082781
0.086031 0.086031 0.086031
0.089411 0.089411 0.089411
0.092924 0.092924 0.092924
0.096575 0.096575 0.096575
0.100366 0.100366 0.100366
0.104298 0.104298 0.104298
0.108371 0.108371 0.108371
0.112583 0.112583 0.112583
0.116935 0.116935 0.116935
0.121425 0.121425 0.121425
0.126053 0.126053 0.126053
0.130819 0.130819 0.130819
0.135721 0.135721 0.135721
0.140758 0.140758 0.140758
0.145930 0.145930 0.145930
0.151236 0.151236 0.151236
0.156674 0.156674 0.156674
0.162244 0.162244 0.162244
0.167945 0.167945 0.167945
0.173774 0.173774 0.173774
0.179732 0.179732 0.179732
0.185816 0.185816 0.185816
0.192026 0.192026 0.192026
0.198359 0.198359 0.198359
0.204816 0.204816 0.204816
0.211393 0.211393 0.211393
0.218090 0.218090 0.218090
0.224905 0.224905 0.224905
0.231836 0.231836 0.231836
0.238882 0.238882 0.238882
0.246040 0.246040 0.246040
0.253310 0.253310 0.253310
0.260689 0.260689 0.260689
0.268176 0.268176 0.268176
0.275768 0.275768 0.275768
0.283464 0.283464 0.283464
0.291262 0.291262 0.291262
0.299160 0.299160 0.299160
0.307155 0.307155 0.307155
0.315245 0.315245 0.315245
0.323429 0.323429 0.323429
0.331704 0.331704 0.331704
0.340068 0.340068 0.340068
0.348519 0.348519 0.348519
0.357054 0.357054 0.357054
0.365672 0.365672 0.365672
0.374368 0.374368 0.374368
0.383143 0.383143 0.383143
0.391992 0.391992 0.391992
0.400913 0.400913 0.400913
0.409905 0.409905 0.409905
0.418963 0.418963 0.418963
0.428087 0.428087 0.428087
0.437272 0.437272 0.437272
0.446517 0.446517 0.446517
0.285376 0.285376 0.285376
0.259822 0.259822 0.259822
0.235486 0.235486 0.235486
0.212436 0.212436 0.212436
0.190734 0.190734 0.190734
0.170438 0.170438 0.170438
0.151598 0.151598 0.151598
0.134256 0.134256 0.134256
0.118450 0.118450 0.118450
0.104209 0.104209 0.104209
0.108279 0.108279 0.108279
0.112488 0.112488 0.112488
0.116837 0.116837 0.116837
0.121324 0.121324 0.121324
0.125949 0.125949 0.125949
0.130711 0.130711 0.130711
0.135610 0.135610 0.135610
0.140645 0.140645 0.140645
0.145814 0.145814 0.145814
0.151116 0.151116 0.151116
0.156552 0.156552 0.156552
0.162119 0.162119 0.162119
0.167816 0.167816 0.167816
0.173643 0.173643 0.173643
0.179598 0.179598 0.179598
0.185679 0.185679 0.185679
0.191886 0.191886 0.191886
0.198217 0.198217 0.198217
0.204671 0.204671 0.204671
0.211245 0.211245 0.211245
0.217940 0.217940 0.217940
0.224752 0.224752 0.224752
0.231680 0.231680 0.231680
0.238724 0.238724 0.238724
0.245880 0.245880 0.245880
0.253147 0.253147 0.253147
0.260524 0.260524 0.260524
0.268008 0.268008 0.268008
0.275598 0.275598 0.275598
0.283292 0.283292 0.283292
0.291088 0.291088 0.291088
0.298983 0.298983 0.298983
0.306976 0.306976 0.306976
0.315064 0.315064 0.315064
0.323246 0.323246 0.323246
0.331519 0.331519 0.331519
0.339881 0.339881 0.339881
0.348330 0.348330 0.348330
0.356864 0.356864 0.356864
0.365479 0.365479 0.365479
0.374174 0.374174 0.374174
0.382947 0.382947 0.382947
0.391794 0.391794 0.391794
0.400714 0.400714 0.400714
0.409704 0.409704 0.409704
0.418761 0.418761 0.418761
0.427883 0.427883 0.427883
0.437067 0.437067 0.437067
0.446311 0.446311 0.446311
0.455611 0.455611 0.455611
0.464964 0.464964 0.464964
0.474370 0.474370 0.474370
0.483823 0.483823 0.483823
0.493322 0.493322 0.493322
0.362106 0.362106 0.362106
0.333571 0.333571 0.333571
0.306037 0.306037 0.306037
0.279587 0.279587 0.279587
0.254297 0.254297 0.254297
0.230241 0.230241 0.230241
0.207486 0.207486 0.207486
0.186093 0.186093 0.186093
0.166117 0.166117 0.166117
0.147607 0.147607 0.147607
0.130604 0.130604 0.130604
0.135500 0.135500 0.135500
0.140531 0.140531 0.140531
0.145697 0.145697 0.145697
0.150997 0.150997 0.150997
0.156430 0.156430 0.156430
0.161994 0.161994 0.161994
0.167688 0.167688 0.167688
0.173512 0.173512 0.173512
0.179464 0.179464 0.179464
0.185543 0.185543 0.185543
0.191747 0.191747 0.191747
0.198075 0.198075 0.198075
0.204526 0.204526 0.204526
0.211098 0.211098 0.211098
0.217790 0.217790 0.217790
0.224599 0.224599 0.224599
0.231525 0.231525 0.231525
0.238566 0.238566 0.238566
0.245720 0.245720 0.245720
0.252984 0.252984 0.252984
0.260359 0.260359 0.260359
0.267841 0.267841 0.267841
0.275429 0.275429 0.275429
0.283120 0.283120 0.283120
0.290913 0.290913 0.290913
0.298806 0.298806 0.298806
0.306797 0.306797 0.306797
0.314883 0.314883 0.314883
0.323063 0.323063 0.323063
0.331334 0.331334 0.331334
0.339694 0.339694 0.339694
0.348141 0.348141 0.348141
0.356673 0.356673 0.356673
0.365287 0.365287 0.365287
0.373980 0.373980 0.373980
0.382751 0.382751 0.382751
0.391597 0.391597 0.391597
0.400515 0.400515 0.400515
0.409504 0.409504 0.409504
0.418559 0.418559 0.418559
0.427680 0.427680 0.427680
0.436862 0.436862 0.436862
0.446104 0.446104 0.446104
0.455403 0.455403 0.455403
0.464756 0.464756 0.464756
0.474160 0.474160 0.474160
0.483612 0.483612 0.483612
0.493110 0.493110 0.493110
0.502649 0.502649 0.502649
0.512185 0.512185 0.512185
0.521701 0.521701 0.521701
0.531194 0.531194 0.531194
0.540660 0.540660 0.540660
0.445852 0.445852 0.445852
0.415016 0.415016 0.415016
0.384924 0.384924 0.384924
0.355672 0.355672 0.355672
0.327353 0.327353 0.327353
0.300053 0.300053 0.300053
0.273855 0.273855 0.273855
0.248834 0.248834 0.248834
0.225062 0.225062 0.225062
0.202605 0.202605 0.202605
0.181522 0.181522 0.181522
0.161869 0.161869 0.161869
0.167560 0.167560 0.167560
0.173381 0.173381 0.173381
0.179330 0.179330 0.179330
0.185406 0.185406 0.185406
0.191608 0.191608 0.191608
0.197933 0.197933 0.197933
0.204381 0.204381 0.204381
0.210951 0.210951 0.210951
0.217640 0.217640 0.217640
0.224446 0.224446 0.224446
0.231370 0.231370 0.231370
0.238408 0.238408 0.238408
0.245559 0.245559 0.245559
0.252822 0.252822 0.252822
0.260194 0.260194 0.260194
0.267673 0.267673 0.267673
0.275259 0.275259 0.275259
0.282948 0.282948 0.282948
0.290739 0.290739 0.290739
0.298630 0.298630 0.298630
0.306618 0.306618 0.306618
0.314703 0.314703 0.314703
0.322880 0.322880 0.322880
0.331149 0.331149 0.331149
0.339508 0.339508 0.339508
0.347953 0.347953 0.347953
0.356482 0.356482 0.356482
0.365094 0.365094 0.365094
0.373786 0.373786 0.373786
0.382555 0.382555 0.382555
0.391399 0.391399 0.391399
0.400316 0.400316 0.400316
0.409303 0.409303 0.409303
0.418357 0.418357 0.418357
0.427476 0.427476 0.427476
0.436657 0.436657 0.436657
0.445898 0.445898 0.445898
0.455196 0.455196 0.455196
0.464547 0.464547 0.464547
0.473950 0.473950 0.473950
0.483402 0.483402 0.483402
0.492899 0.492899 0.492899
0.502437 0.502437 0.502437
0.511973 0.511973 0.511973
0.521490 0.521490 0.521490
0.530983 0.530983 0.530983
0.540450 0.540450 0.540450
0.549887 0.549887 0.549887
0.559292 0.559292 0.559292
0.568661 0.568661 0.568661
0.577991 0.577991 0.577991
0.587279 0.587279 0.587279
0.534166 0.534166 0.534166
0.502177 0.502177 0.502177
0.470273 0.470273 0.470273
0.438929 0.438929 0.438929
0.408250 0.408250 0.408250
0.378337 0.378337 0.378337
0.349285 0.349285 0.349285
0.321185 0.321185 0.321185
0.294124 0.294124 0.294124
0.268181 0.268181 0.268181
0.243432 0.243432 0.243432
0.219947 0.219947 0.219947
0.197791 0.197791 0.197791
0.204237 0.204237 0.204237
0.210803 0.210803 0.210803
0.217489 0.217489 0.217489
0.224294 0.224294 0.224294
0.231215 0.231215 0.231215
0.238250 0.238250 0.238250
0.245399 0.245399 0.245399
0.252659 0.252659 0.252659
0.260029 0.260029 0.260029
0.267506 0.267506 0.267506
0.275089 0.275089 0.275089
0.282776 0.282776 0.282776
0.290565 0.290565 0.290565
0.298453 0.298453 0.298453
0.306440 0.306440 0.306440
0.314522 0.314522 0.314522
0.322697 0.322697 0.322697
0.330964 0.330964 0.330964
0.339321 0.339321 0.339321
0.347764 0.347764 0.347764
0.356292 0.356292 0.356292
0.364902 0.364902 0.364902
0.373592 0.373592 0.373592
0.382359 0.382359 0.382359
0.391202 0.391202 0.391202
0.400117 0.400117 0.400117
0.409102 0.409102 0.409102
0.418155 0.418155 0.418155
0.427273 0.427273 0.427273
0.436453 0.436453 0.436453
0.445692 0.445692 0.445692
0.454988 0.454988 0.454988
0.464339 0.464339 0.464339
0.473741 0.473741 0.473741
0.483191 0.483191 0.483191
0.492687 0.492687 0.492687
0.502224 0.502224 0.502224
0.511761 0.511761 0.511761
0.521278 0.521278 0.521278
0.530772 0.530772 0.530772
0.540240 0.540240 0.540240
0.549678 0.549678 0.549678
0.559083 0.559083 0.559083
0.568453 0.568453 0.568453
0.577784 0.577784 0.577784
0.587073 0.587073 0.587073
0.596316 0.596316 0.596316
0.605512 0.605512 0.605512
0.614655 0.614655 0.614655
0.623745 0.623745 0.623745
0.632776 0.632776 0.632776
0.621016 0.621016 0.621016
0.590183 0.590183 0.590183
0.558828 0.558828 0.558828
0.527069 0.527069 0.527069
0.495034 0.495034 0.495034
0.463244 0.463244 0.463244
0.432039 0.432039 0.432039
0.401522 0.401522 0.401522
0.371792 0.371792 0.371792
0.342945 0.342945 0.342945
0.315069 0.315069 0.315069
0.288250 0.288250 0.288250
0.262566 0.262566 0.262566
0.238093 0.238093 0.238093
0.245239 0.245239 0.245239
0.252497 0.252497 0.252497
0.259864 0.259864 0.259864
0.267339 0.267339 0.267339
0.274919 0.274919 0.274919
0.282604 0.282604 0.282604
0.290390 0.290390 0.290390
0.298277 0.298277 0.298277
0.306261 0.306261 0.306261
0.314341 0.314341 0.314341
0.322515 0.322515 0.322515
0.330780 0.330780 0.330780
0.339134 0.339134 0.339134
0.347575 0.347575 0.347575
0.356101 0.356101 0.356101
0.364709 0.364709 0.364709
0.373398 0.373398 0.373398
0.382164 0.382164 0.382164
0.391005 0.391005 0.391005
0.399918 0.399918 0.399918
0.408902 0.408902 0.408902
0.417953 0.417953 0.417953
0.427069 0.427069 0.427069
0.436248 0.436248 0.436248
0.445486 0.445486 0.445486
0.454781 0.454781 0.454781
0.464130 0.464130 0.464130
0.473531 0.473531 0.473531
0.482980 0.482980 0.482980
0.492476 0.492476 0.492476
0.502012 0.502012 0.502012
0.511550 0.511550 0.511550
0.521067 0.521067 0.521067
0.530561 0.530561 0.530561
0.540030 0.540030 0.540030
0.549468 0.549468 0.549468
0.558875 0.558875 0.558875
